(Bottom ring for Bucket Stand - Setup for 23/32 inch stock or 3/4 inch, pockets are slighty oversized for 23/32 inch stock)
(Generated by PartKam Version 0.05)

G20 G90 G40

(pocket1Lower)
G0 Z0.125
T0 M6
G17
M3
G0 X6.1264 Y2.3693
G1 Z-0.15 F30
G1 X6.2639 Y2.6075 F10
G1 X6.2423 Y2.62
G1 X6.1048 Y2.3818
G1 X6.1264 Y2.3693
G1 X6.163 Y2.2327 F10
G1 X6.4005 Y2.6441 F10
G1 X6.2057 Y2.7566
G1 X5.9682 Y2.3452
G1 X6.163 Y2.2327
G1 X6.1996 Y2.0961 F10
G1 X6.5371 Y2.6807 F10
G1 X6.1691 Y2.8932
G1 X5.8316 Y2.3086
G1 X6.1996 Y2.0961
G1 X6.2363 Y1.9595 F10
G1 X6.6738 Y2.7173 F10
G1 X6.1325 Y3.0298
G1 X5.695 Y2.272
G1 X6.2363 Y1.9595
G0 Z0.125
G0 X6.1264 Y2.3693
G1 Z-0.3 F30
G1 X6.2639 Y2.6075 F10
G1 X6.2423 Y2.62
G1 X6.1048 Y2.3818
G1 X6.1264 Y2.3693
G1 X6.163 Y2.2327 F10
G1 X6.4005 Y2.6441 F10
G1 X6.2057 Y2.7566
G1 X5.9682 Y2.3452
G1 X6.163 Y2.2327
G1 X6.1996 Y2.0961 F10
G1 X6.5371 Y2.6807 F10
G1 X6.1691 Y2.8932
G1 X5.8316 Y2.3086
G1 X6.1996 Y2.0961
G1 X6.2363 Y1.9595 F10
G1 X6.6738 Y2.7173 F10
G1 X6.1325 Y3.0298
G1 X5.695 Y2.272
G1 X6.2363 Y1.9595
G0 Z0.125
G0 X6.1264 Y2.3693
G1 Z-0.45 F30
G1 X6.2639 Y2.6075 F10
G1 X6.2423 Y2.62
G1 X6.1048 Y2.3818
G1 X6.1264 Y2.3693
G1 X6.163 Y2.2327 F10
G1 X6.4005 Y2.6441 F10
G1 X6.2057 Y2.7566
G1 X5.9682 Y2.3452
G1 X6.163 Y2.2327
G1 X6.1996 Y2.0961 F10
G1 X6.5371 Y2.6807 F10
G1 X6.1691 Y2.8932
G1 X5.8316 Y2.3086
G1 X6.1996 Y2.0961
G1 X6.2363 Y1.9595 F10
G1 X6.6738 Y2.7173 F10
G1 X6.1325 Y3.0298
G1 X5.695 Y2.272
G1 X6.2363 Y1.9595
G0 Z0.125
G0 X6.1264 Y2.3693
G1 Z-0.5 F30
G1 X6.2639 Y2.6075 F10
G1 X6.2423 Y2.62
G1 X6.1048 Y2.3818
G1 X6.1264 Y2.3693
G1 X6.163 Y2.2327 F10
G1 X6.4005 Y2.6441 F10
G1 X6.2057 Y2.7566
G1 X5.9682 Y2.3452
G1 X6.163 Y2.2327
G1 X6.1996 Y2.0961 F10
G1 X6.5371 Y2.6807 F10
G1 X6.1691 Y2.8932
G1 X5.8316 Y2.3086
G1 X6.1996 Y2.0961
G1 X6.2363 Y1.9595 F10
G1 X6.6738 Y2.7173 F10
G1 X6.1325 Y3.0298
G1 X5.695 Y2.272
G1 X6.2363 Y1.9595

(pocket2mid)
G0 Z0.125
G0 X21.4576 Y11.2458
G1 Z-0.15 F30
G1 X21.1826 Y11.2458 F10
G1 X21.1826 Y11.2208
G1 X21.4576 Y11.2208
G1 X21.4576 Y11.2458
G1 X21.5576 Y11.3458 F10
G1 X21.0826 Y11.3458 F10
G1 X21.0826 Y11.1208
G1 X21.5576 Y11.1208
G1 X21.5576 Y11.3458
G1 X21.6576 Y11.4458 F10
G1 X20.9826 Y11.4458 F10
G1 X20.9826 Y11.0208
G1 X21.6576 Y11.0208
G1 X21.6576 Y11.4458
G1 X21.7576 Y11.5458 F10
G1 X20.8826 Y11.5458 F10
G1 X20.8826 Y10.9208
G1 X21.7576 Y10.9208
G1 X21.7576 Y11.5458
G0 Z0.125
G0 X21.4576 Y11.2458
G1 Z-0.3 F30
G1 X21.1826 Y11.2458 F10
G1 X21.1826 Y11.2208
G1 X21.4576 Y11.2208
G1 X21.4576 Y11.2458
G1 X21.5576 Y11.3458 F10
G1 X21.0826 Y11.3458 F10
G1 X21.0826 Y11.1208
G1 X21.5576 Y11.1208
G1 X21.5576 Y11.3458
G1 X21.6576 Y11.4458 F10
G1 X20.9826 Y11.4458 F10
G1 X20.9826 Y11.0208
G1 X21.6576 Y11.0208
G1 X21.6576 Y11.4458
G1 X21.7576 Y11.5458 F10
G1 X20.8826 Y11.5458 F10
G1 X20.8826 Y10.9208
G1 X21.7576 Y10.9208
G1 X21.7576 Y11.5458
G0 Z0.125
G0 X21.4576 Y11.2458
G1 Z-0.45 F30
G1 X21.1826 Y11.2458 F10
G1 X21.1826 Y11.2208
G1 X21.4576 Y11.2208
G1 X21.4576 Y11.2458
G1 X21.5576 Y11.3458 F10
G1 X21.0826 Y11.3458 F10
G1 X21.0826 Y11.1208
G1 X21.5576 Y11.1208
G1 X21.5576 Y11.3458
G1 X21.6576 Y11.4458 F10
G1 X20.9826 Y11.4458 F10
G1 X20.9826 Y11.0208
G1 X21.6576 Y11.0208
G1 X21.6576 Y11.4458
G1 X21.7576 Y11.5458 F10
G1 X20.8826 Y11.5458 F10
G1 X20.8826 Y10.9208
G1 X21.7576 Y10.9208
G1 X21.7576 Y11.5458
G0 Z0.125
G0 X21.4576 Y11.2458
G1 Z-0.5 F30
G1 X21.1826 Y11.2458 F10
G1 X21.1826 Y11.2208
G1 X21.4576 Y11.2208
G1 X21.4576 Y11.2458
G1 X21.5576 Y11.3458 F10
G1 X21.0826 Y11.3458 F10
G1 X21.0826 Y11.1208
G1 X21.5576 Y11.1208
G1 X21.5576 Y11.3458
G1 X21.6576 Y11.4458 F10
G1 X20.9826 Y11.4458 F10
G1 X20.9826 Y11.0208
G1 X21.6576 Y11.0208
G1 X21.6576 Y11.4458
G1 X21.7576 Y11.5458 F10
G1 X20.8826 Y11.5458 F10
G1 X20.8826 Y10.9208
G1 X21.7576 Y10.9208
G1 X21.7576 Y11.5458

(pocket3upper)
G0 Z0.125
G0 X6.1048 Y20.0848
G1 Z-0.15 F30
G1 X6.2423 Y19.8466 F10
G1 X6.2639 Y19.8591
G1 X6.1264 Y20.0973
G1 X6.1048 Y20.0848
G1 X5.9682 Y20.1214 F10
G1 X6.2057 Y19.71 F10
G1 X6.4005 Y19.8225
G1 X6.163 Y20.2339
G1 X5.9682 Y20.1214
G1 X5.8316 Y20.158 F10
G1 X6.1691 Y19.5734 F10
G1 X6.5371 Y19.7859
G1 X6.1996 Y20.3705
G1 X5.8316 Y20.158
G1 X5.695 Y20.1946 F10
G1 X6.1325 Y19.4368 F10
G1 X6.6738 Y19.7493
G1 X6.2363 Y20.5071
G1 X5.695 Y20.1946
G0 Z0.125
G0 X6.1048 Y20.0848
G1 Z-0.3 F30
G1 X6.2423 Y19.8466 F10
G1 X6.2639 Y19.8591
G1 X6.1264 Y20.0973
G1 X6.1048 Y20.0848
G1 X5.9682 Y20.1214 F10
G1 X6.2057 Y19.71 F10
G1 X6.4005 Y19.8225
G1 X6.163 Y20.2339
G1 X5.9682 Y20.1214
G1 X5.8316 Y20.158 F10
G1 X6.1691 Y19.5734 F10
G1 X6.5371 Y19.7859
G1 X6.1996 Y20.3705
G1 X5.8316 Y20.158
G1 X5.695 Y20.1946 F10
G1 X6.1325 Y19.4368 F10
G1 X6.6738 Y19.7493
G1 X6.2363 Y20.5071
G1 X5.695 Y20.1946
G0 Z0.125
G0 X6.1048 Y20.0848
G1 Z-0.45 F30
G1 X6.2423 Y19.8466 F10
G1 X6.2639 Y19.8591
G1 X6.1264 Y20.0973
G1 X6.1048 Y20.0848
G1 X5.9682 Y20.1214 F10
G1 X6.2057 Y19.71 F10
G1 X6.4005 Y19.8225
G1 X6.163 Y20.2339
G1 X5.9682 Y20.1214
G1 X5.8316 Y20.158 F10
G1 X6.1691 Y19.5734 F10
G1 X6.5371 Y19.7859
G1 X6.1996 Y20.3705
G1 X5.8316 Y20.158
G1 X5.695 Y20.1946 F10
G1 X6.1325 Y19.4368 F10
G1 X6.6738 Y19.7493
G1 X6.2363 Y20.5071
G1 X5.695 Y20.1946
G0 Z0.125
G0 X6.1048 Y20.0848
G1 Z-0.5 F30
G1 X6.2423 Y19.8466 F10
G1 X6.2639 Y19.8591
G1 X6.1264 Y20.0973
G1 X6.1048 Y20.0848
G1 X5.9682 Y20.1214 F10
G1 X6.2057 Y19.71 F10
G1 X6.4005 Y19.8225
G1 X6.163 Y20.2339
G1 X5.9682 Y20.1214
G1 X5.8316 Y20.158 F10
G1 X6.1691 Y19.5734 F10
G1 X6.5371 Y19.7859
G1 X6.1996 Y20.3705
G1 X5.8316 Y20.158
G1 X5.695 Y20.1946 F10
G1 X6.1325 Y19.4368 F10
G1 X6.6738 Y19.7493
G1 X6.2363 Y20.5071
G1 X5.695 Y20.1946

(insideRing)
G0 Z0.125
G0 X3.9764 Y16.5031
G1 Z-0.15 F30
G3 X3.6933 Y16.091 I7.6391 J-5.5501 F15
G3 X3.2193 Y15.2731 I7.9221 J-5.138
G3 X2.692 Y14.0073 I7.579 J-3.8997
G3 X2.3746 Y12.6734 I8.1062 J-2.6339
G3 X2.2641 Y11.2333 I9.332 J-1.4401
G1 X2.2641 Y11.2333
G1 X2.2641 Y11.2333
G3 X2.3746 Y9.7932 I9.4424 J0
G3 X2.692 Y8.4593 I8.4237 J1.2999
G3 X3.2193 Y7.1935 I8.1062 J2.6339
G3 X3.9764 Y5.9635 I8.3962 J4.3202
G3 X4.9122 Y4.8634 I7.6391 J5.5501
G3 X5.9531 Y3.9708 I6.0508 J6.003
G3 X7.1237 Y3.2566 I5.0099 J6.8956
G3 X8.4591 Y2.7066 I4.2533 J8.4302
G3 X9.8628 Y2.3666 I2.9179 J8.9803
G3 X11.2296 Y2.2563 I1.3668 J8.4131
G3 X11.6559 Y2.267 I0 J8.5234
G3 X12.1542 Y2.3066 I-0.4262 J8.5127
G3 X12.5964 Y2.3666 I-0.9246 J8.4731
G3 X14.0001 Y2.7066 I-1.5142 J9.3202
G3 X15.3356 Y3.2566 I-2.9179 J8.9803
G3 X16.5061 Y3.9708 I-3.8393 J7.6097
G3 X17.5471 Y4.8634 I-5.0099 J6.8956
G3 X18.4829 Y5.9635 I-6.7033 J6.6502
G3 X19.24 Y7.1935 I-7.6391 J5.5501
G3 X19.7672 Y8.4593 I-7.579 J3.8997
G3 X20.0847 Y9.7932 I-8.1062 J2.6339
G3 X20.1951 Y11.2333 I-9.332 J1.4401
G1 X20.1951 Y11.2333
G1 X20.1951 Y11.2333
G3 X20.0847 Y12.6734 I-9.4424 J0
G3 X19.7672 Y14.0073 I-8.4237 J-1.2999
G3 X19.24 Y15.2731 I-8.1062 J-2.6339
G3 X19.1287 Y15.4829 I-8.3962 J-4.3202
G3 X18.8773 Y15.915 I-8.2849 J-4.5299
G3 X18.4829 Y16.5031 I-8.0335 J-4.962
G3 X17.5471 Y17.6032 I-7.6391 J-5.5501
G3 X16.5061 Y18.4958 I-6.0508 J-6.003
G3 X15.3356 Y19.21 I-5.0099 J-6.8956
G3 X14.0001 Y19.76 I-4.2533 J-8.4302
G3 X12.5964 Y20.1 I-2.9179 J-8.9803
G3 X11.2296 Y20.2103 I-1.3668 J-8.4131
G3 X9.8628 Y20.1 I0 J-8.5234
G3 X8.4591 Y19.76 I1.5142 J-9.3202
G3 X7.1237 Y19.21 I2.9179 J-8.9803
G3 X5.9531 Y18.4958 I3.8393 J-7.6097
G3 X4.9122 Y17.6032 I5.0099 J-6.8956
G3 X3.9764 Y16.5031 I6.7033 J-6.6502
G1 Z-0.3 F30
G3 X3.6933 Y16.091 I7.6391 J-5.5501 F15
G3 X3.2193 Y15.2731 I7.9221 J-5.138
G3 X2.692 Y14.0073 I7.579 J-3.8997
G3 X2.3746 Y12.6734 I8.1062 J-2.6339
G3 X2.2641 Y11.2333 I9.332 J-1.4401
G1 X2.2641 Y11.2333
G1 X2.2641 Y11.2333
G3 X2.3746 Y9.7932 I9.4424 J0
G3 X2.692 Y8.4593 I8.4237 J1.2999
G3 X3.2193 Y7.1935 I8.1062 J2.6339
G3 X3.9764 Y5.9635 I8.3962 J4.3202
G3 X4.9122 Y4.8634 I7.6391 J5.5501
G3 X5.9531 Y3.9708 I6.0508 J6.003
G3 X7.1237 Y3.2566 I5.0099 J6.8956
G3 X8.4591 Y2.7066 I4.2533 J8.4302
G3 X9.8628 Y2.3666 I2.9179 J8.9803
G3 X11.2296 Y2.2563 I1.3668 J8.4131
G3 X11.6559 Y2.267 I0 J8.5234
G3 X12.1542 Y2.3066 I-0.4262 J8.5127
G3 X12.5964 Y2.3666 I-0.9246 J8.4731
G3 X14.0001 Y2.7066 I-1.5142 J9.3202
G3 X15.3356 Y3.2566 I-2.9179 J8.9803
G3 X16.5061 Y3.9708 I-3.8393 J7.6097
G3 X17.5471 Y4.8634 I-5.0099 J6.8956
G3 X18.4829 Y5.9635 I-6.7033 J6.6502
G3 X19.24 Y7.1935 I-7.6391 J5.5501
G3 X19.7672 Y8.4593 I-7.579 J3.8997
G3 X20.0847 Y9.7932 I-8.1062 J2.6339
G3 X20.1951 Y11.2333 I-9.332 J1.4401
G1 X20.1951 Y11.2333
G1 X20.1951 Y11.2333
G3 X20.0847 Y12.6734 I-9.4424 J0
G3 X19.7672 Y14.0073 I-8.4237 J-1.2999
G3 X19.24 Y15.2731 I-8.1062 J-2.6339
G3 X19.1287 Y15.4829 I-8.3962 J-4.3202
G3 X18.8773 Y15.915 I-8.2849 J-4.5299
G3 X18.4829 Y16.5031 I-8.0335 J-4.962
G3 X17.5471 Y17.6032 I-7.6391 J-5.5501
G3 X16.5061 Y18.4958 I-6.0508 J-6.003
G3 X15.3356 Y19.21 I-5.0099 J-6.8956
G3 X14.0001 Y19.76 I-4.2533 J-8.4302
G3 X12.5964 Y20.1 I-2.9179 J-8.9803
G3 X11.2296 Y20.2103 I-1.3668 J-8.4131
G3 X9.8628 Y20.1 I0 J-8.5234
G3 X8.4591 Y19.76 I1.5142 J-9.3202
G3 X7.1237 Y19.21 I2.9179 J-8.9803
G3 X5.9531 Y18.4958 I3.8393 J-7.6097
G3 X4.9122 Y17.6032 I5.0099 J-6.8956
G3 X3.9764 Y16.5031 I6.7033 J-6.6502
G1 Z-0.45 F30
G3 X3.6933 Y16.091 I7.6391 J-5.5501 F15
G3 X3.2193 Y15.2731 I7.9221 J-5.138
G3 X2.692 Y14.0073 I7.579 J-3.8997
G3 X2.3746 Y12.6734 I8.1062 J-2.6339
G3 X2.2641 Y11.2333 I9.332 J-1.4401
G1 X2.2641 Y11.2333
G1 X2.2641 Y11.2333
G3 X2.3746 Y9.7932 I9.4424 J0
G3 X2.692 Y8.4593 I8.4237 J1.2999
G3 X3.2193 Y7.1935 I8.1062 J2.6339
G3 X3.9764 Y5.9635 I8.3962 J4.3202
G3 X4.9122 Y4.8634 I7.6391 J5.5501
G3 X5.9531 Y3.9708 I6.0508 J6.003
G3 X7.1237 Y3.2566 I5.0099 J6.8956
G3 X8.4591 Y2.7066 I4.2533 J8.4302
G3 X9.8628 Y2.3666 I2.9179 J8.9803
G3 X11.2296 Y2.2563 I1.3668 J8.4131
G3 X11.6559 Y2.267 I0 J8.5234
G3 X12.1542 Y2.3066 I-0.4262 J8.5127
G3 X12.5964 Y2.3666 I-0.9246 J8.4731
G3 X14.0001 Y2.7066 I-1.5142 J9.3202
G3 X15.3356 Y3.2566 I-2.9179 J8.9803
G3 X16.5061 Y3.9708 I-3.8393 J7.6097
G3 X17.5471 Y4.8634 I-5.0099 J6.8956
G3 X18.4829 Y5.9635 I-6.7033 J6.6502
G3 X19.24 Y7.1935 I-7.6391 J5.5501
G3 X19.7672 Y8.4593 I-7.579 J3.8997
G3 X20.0847 Y9.7932 I-8.1062 J2.6339
G3 X20.1951 Y11.2333 I-9.332 J1.4401
G1 X20.1951 Y11.2333
G1 X20.1951 Y11.2333
G3 X20.0847 Y12.6734 I-9.4424 J0
G3 X19.7672 Y14.0073 I-8.4237 J-1.2999
G3 X19.24 Y15.2731 I-8.1062 J-2.6339
G3 X19.1287 Y15.4829 I-8.3962 J-4.3202
G3 X18.8773 Y15.915 I-8.2849 J-4.5299
G3 X18.4829 Y16.5031 I-8.0335 J-4.962
G3 X17.5471 Y17.6032 I-7.6391 J-5.5501
G3 X16.5061 Y18.4958 I-6.0508 J-6.003
G3 X15.3356 Y19.21 I-5.0099 J-6.8956
G3 X14.0001 Y19.76 I-4.2533 J-8.4302
G3 X12.5964 Y20.1 I-2.9179 J-8.9803
G3 X11.2296 Y20.2103 I-1.3668 J-8.4131
G3 X9.8628 Y20.1 I0 J-8.5234
G3 X8.4591 Y19.76 I1.5142 J-9.3202
G3 X7.1237 Y19.21 I2.9179 J-8.9803
G3 X5.9531 Y18.4958 I3.8393 J-7.6097
G3 X4.9122 Y17.6032 I5.0099 J-6.8956
G3 X3.9764 Y16.5031 I6.7033 J-6.6502
G1 Z-0.6 F30
G3 X3.6933 Y16.091 I7.6391 J-5.5501 F15
G3 X3.2193 Y15.2731 I7.9221 J-5.138
G3 X2.692 Y14.0073 I7.579 J-3.8997
G3 X2.3746 Y12.6734 I8.1062 J-2.6339
G3 X2.2641 Y11.2333 I9.332 J-1.4401
G1 X2.2641 Y11.2333
G1 X2.2641 Y11.2333
G3 X2.3746 Y9.7932 I9.4424 J0
G3 X2.692 Y8.4593 I8.4237 J1.2999
G3 X3.2193 Y7.1935 I8.1062 J2.6339
G3 X3.9764 Y5.9635 I8.3962 J4.3202
G3 X4.9122 Y4.8634 I7.6391 J5.5501
G3 X5.9531 Y3.9708 I6.0508 J6.003
G3 X7.1237 Y3.2566 I5.0099 J6.8956
G3 X8.4591 Y2.7066 I4.2533 J8.4302
G3 X9.8628 Y2.3666 I2.9179 J8.9803
G3 X11.2296 Y2.2563 I1.3668 J8.4131
G3 X11.6559 Y2.267 I0 J8.5234
G3 X12.1542 Y2.3066 I-0.4262 J8.5127
G3 X12.5964 Y2.3666 I-0.9246 J8.4731
G3 X14.0001 Y2.7066 I-1.5142 J9.3202
G3 X15.3356 Y3.2566 I-2.9179 J8.9803
G3 X16.5061 Y3.9708 I-3.8393 J7.6097
G3 X17.5471 Y4.8634 I-5.0099 J6.8956
G3 X18.4829 Y5.9635 I-6.7033 J6.6502
G3 X19.24 Y7.1935 I-7.6391 J5.5501
G3 X19.7672 Y8.4593 I-7.579 J3.8997
G3 X20.0847 Y9.7932 I-8.1062 J2.6339
G3 X20.1951 Y11.2333 I-9.332 J1.4401
G1 X20.1951 Y11.2333
G1 X20.1951 Y11.2333
G3 X20.0847 Y12.6734 I-9.4424 J0
G3 X19.7672 Y14.0073 I-8.4237 J-1.2999
G3 X19.24 Y15.2731 I-8.1062 J-2.6339
G3 X19.1287 Y15.4829 I-8.3962 J-4.3202
G3 X18.8773 Y15.915 I-8.2849 J-4.5299
G3 X18.4829 Y16.5031 I-8.0335 J-4.962
G3 X17.5471 Y17.6032 I-7.6391 J-5.5501
G3 X16.5061 Y18.4958 I-6.0508 J-6.003
G3 X15.3356 Y19.21 I-5.0099 J-6.8956
G3 X14.0001 Y19.76 I-4.2533 J-8.4302
G3 X12.5964 Y20.1 I-2.9179 J-8.9803
G3 X11.2296 Y20.2103 I-1.3668 J-8.4131
G3 X9.8628 Y20.1 I0 J-8.5234
G3 X8.4591 Y19.76 I1.5142 J-9.3202
G3 X7.1237 Y19.21 I2.9179 J-8.9803
G3 X5.9531 Y18.4958 I3.8393 J-7.6097
G3 X4.9122 Y17.6032 I5.0099 J-6.8956
G3 X3.9764 Y16.5031 I6.7033 J-6.6502
G1 Z-0.75 F30
G1 Z-0.65 F30
G3 X3.6933 Y16.091 I7.6391 J-5.5501 F15
G1 Z-0.75 F30
G3 X3.2193 Y15.2731 I7.9221 J-5.138 F15
G3 X2.692 Y14.0073 I7.579 J-3.8997
G3 X2.3746 Y12.6734 I8.1062 J-2.6339
G3 X2.2641 Y11.2333 I9.332 J-1.4401
G1 X2.2641 Y11.2333
G1 X2.2641 Y11.2333
G3 X2.3746 Y9.7932 I9.4424 J0
G3 X2.692 Y8.4593 I8.4237 J1.2999
G3 X3.2193 Y7.1935 I8.1062 J2.6339
G3 X3.9764 Y5.9635 I8.3962 J4.3202
G3 X4.9122 Y4.8634 I7.6391 J5.5501
G3 X5.9531 Y3.9708 I6.0508 J6.003
G3 X7.1237 Y3.2566 I5.0099 J6.8956
G3 X8.4591 Y2.7066 I4.2533 J8.4302
G3 X9.8628 Y2.3666 I2.9179 J8.9803
G3 X11.2296 Y2.2563 I1.3668 J8.4131
G3 X11.6559 Y2.267 I0 J8.5234
G1 Z-0.65 F30
G3 X12.1542 Y2.3066 I-0.4262 J8.5127 F15
G1 Z-0.75 F30
G3 X12.5964 Y2.3666 I-0.9246 J8.4731 F15
G3 X14.0001 Y2.7066 I-1.5142 J9.3202
G3 X15.3356 Y3.2566 I-2.9179 J8.9803
G3 X16.5061 Y3.9708 I-3.8393 J7.6097
G3 X17.5471 Y4.8634 I-5.0099 J6.8956
G3 X18.4829 Y5.9635 I-6.7033 J6.6502
G3 X19.24 Y7.1935 I-7.6391 J5.5501
G3 X19.7672 Y8.4593 I-7.579 J3.8997
G3 X20.0847 Y9.7932 I-8.1062 J2.6339
G3 X20.1951 Y11.2333 I-9.332 J1.4401
G1 X20.1951 Y11.2333
G1 X20.1951 Y11.2333
G3 X20.0847 Y12.6734 I-9.4424 J0
G3 X19.7672 Y14.0073 I-8.4237 J-1.2999
G3 X19.24 Y15.2731 I-8.1062 J-2.6339
G3 X19.1287 Y15.4829 I-8.3962 J-4.3202
G1 Z-0.65 F30
G3 X18.8773 Y15.915 I-8.2849 J-4.5299 F15
G1 Z-0.75 F30
G3 X18.4829 Y16.5031 I-8.0335 J-4.962 F15
G3 X17.5471 Y17.6032 I-7.6391 J-5.5501
G3 X16.5061 Y18.4958 I-6.0508 J-6.003
G3 X15.3356 Y19.21 I-5.0099 J-6.8956
G3 X14.0001 Y19.76 I-4.2533 J-8.4302
G3 X12.5964 Y20.1 I-2.9179 J-8.9803
G3 X11.2296 Y20.2103 I-1.3668 J-8.4131
G3 X9.8628 Y20.1 I0 J-8.5234
G3 X8.4591 Y19.76 I1.5142 J-9.3202
G3 X7.1237 Y19.21 I2.9179 J-8.9803
G3 X5.9531 Y18.4958 I3.8393 J-7.6097
G3 X4.9122 Y17.6032 I5.0099 J-6.8956
G3 X3.9764 Y16.5031 I6.7033 J-6.6502

(outerRing)
G0 Z0.125
G0 X22.3923 Y10.0784
G1 Z-0.15 F30
G3 X22.4451 Y11.2333 I-12.5882 J1.1549 F15
G3 X22.3923 Y12.3882 I-12.641 J0
G3 X22.2399 Y13.4695 I-11.2164 J-1.0291
G3 X21.9814 Y14.5305 I-10.6211 J-2.0259
G3 X21.6235 Y15.5386 I-9.9402 J-2.961
G3 X21.1637 Y16.5045 I-9.5824 J-3.9691
G3 X20.5963 Y17.4375 I-9.5102 J-5.1447
G3 X19.9395 Y18.3098 I-9.3157 J-6.3312
G3 X19.1602 Y19.1639 I-9.7178 J-8.0845
G3 X19.1565 Y19.1675 I-8.9386 J-8.9386
G3 X18.7959 Y19.5138 I-8.9349 J-8.9422
G3 X18.3061 Y19.9431 I-8.5743 J-9.2886
G3 X17.4338 Y20.6 I-7.2035 J-8.6588
G3 X16.5008 Y21.1674 I-6.0777 J-8.9428
G3 X15.5349 Y21.6272 I-4.935 J-9.1226
G3 X14.5268 Y21.9851 I-3.9691 J-9.5824
G3 X13.4659 Y22.2436 I-3.0868 J-10.3626
G3 X12.3846 Y22.3959 I-2.1104 J-11.064
G3 X11.2296 Y22.4488 I-1.1549 J-12.5882
G3 X10.0747 Y22.3959 I0 J-12.641
G3 X8.9934 Y22.2436 I1.0291 J-11.2164
G3 X7.9324 Y21.9851 I2.0259 J-10.6211
G3 X6.9243 Y21.6272 I2.961 J-9.9402
G3 X5.9584 Y21.1674 I3.9691 J-9.5824
G3 X5.0254 Y20.6 I5.1447 J-9.5102
G3 X4.1531 Y19.9431 I6.3312 J-9.3157
G3 X3.2991 Y19.1639 I8.0845 J-9.7178
G3 X2.5198 Y18.3098 I8.9386 J-8.9386
G3 X1.8629 Y17.4375 I8.6588 J-7.2035
G3 X1.7934 Y17.3339 I8.9428 J-6.0777
G3 X1.5269 Y16.911 I9.0123 J-5.9742
G3 X1.2955 Y16.5045 I9.2788 J-5.5512
G3 X0.8357 Y15.5386 I9.1226 J-4.935
G3 X0.4778 Y14.5305 I9.5824 J-3.9691
G3 X0.2193 Y13.4695 I10.3626 J-3.0868
G3 X0.067 Y12.3882 I11.064 J-2.1104
G3 X0.0141 Y11.2333 I12.5882 J-1.1549
G3 X0.067 Y10.0784 I12.641 J0
G3 X0.2193 Y8.9971 I11.2164 J1.0291
G3 X0.4778 Y7.9361 I10.6211 J2.0259
G3 X0.8357 Y6.928 I9.9402 J2.961
G3 X1.2955 Y5.9621 I9.5824 J3.9691
G3 X1.8629 Y5.0291 I9.5102 J5.1447
G3 X2.5198 Y4.1568 I9.3157 J6.3312
G3 X3.1082 Y3.4978 I9.7178 J8.0845
G3 X3.2991 Y3.3027 I9.1294 J8.7436
G3 X3.4611 Y3.1436 I8.9386 J8.9386
G3 X4.1531 Y2.5235 I8.7765 J9.0977
G3 X5.0254 Y1.8666 I7.2035 J8.6588
G3 X5.9584 Y1.2992 I6.0777 J8.9428
G3 X6.9243 Y0.8394 I4.935 J9.1226
G3 X7.9324 Y0.4815 I3.9691 J9.5824
G3 X8.9934 Y0.223 I3.0868 J10.3626
G3 X10.0747 Y0.0707 I2.1104 J11.064
G3 X11.2296 Y0.0178 I1.1549 J12.5882
G3 X12.3846 Y0.0707 I0 J12.641
G3 X13.4659 Y0.223 I-1.0291 J11.2164
G3 X14.5268 Y0.4815 I-2.0259 J10.6211
G3 X15.5349 Y0.8394 I-2.961 J9.9402
G3 X16.5008 Y1.2992 I-3.9691 J9.5824
G3 X17.4338 Y1.8666 I-5.1447 J9.5102
G3 X18.3061 Y2.5235 I-6.3312 J9.3157
G3 X19.0129 Y3.1579 I-8.0845 J9.7178
G3 X19.1602 Y3.3027 I-8.7913 J9.0834
G3 X19.3652 Y3.5126 I-8.9386 J8.9386
G3 X19.9395 Y4.1568 I-9.1436 J8.7287
G3 X20.5963 Y5.0291 I-8.6588 J7.2035
G3 X21.1637 Y5.9621 I-8.9428 J6.0777
G3 X21.6235 Y6.928 I-9.1226 J4.935
G3 X21.9814 Y7.9361 I-9.5824 J3.9691
G3 X22.2399 Y8.9971 I-10.3626 J3.0868
G3 X22.3923 Y10.0784 I-11.064 J2.1104
G1 Z-0.3 F30
G3 X22.4451 Y11.2333 I-12.5882 J1.1549 F15
G3 X22.3923 Y12.3882 I-12.641 J0
G3 X22.2399 Y13.4695 I-11.2164 J-1.0291
G3 X21.9814 Y14.5305 I-10.6211 J-2.0259
G3 X21.6235 Y15.5386 I-9.9402 J-2.961
G3 X21.1637 Y16.5045 I-9.5824 J-3.9691
G3 X20.5963 Y17.4375 I-9.5102 J-5.1447
G3 X19.9395 Y18.3098 I-9.3157 J-6.3312
G3 X19.1602 Y19.1639 I-9.7178 J-8.0845
G3 X19.1565 Y19.1675 I-8.9386 J-8.9386
G3 X18.7959 Y19.5138 I-8.9349 J-8.9422
G3 X18.3061 Y19.9431 I-8.5743 J-9.2886
G3 X17.4338 Y20.6 I-7.2035 J-8.6588
G3 X16.5008 Y21.1674 I-6.0777 J-8.9428
G3 X15.5349 Y21.6272 I-4.935 J-9.1226
G3 X14.5268 Y21.9851 I-3.9691 J-9.5824
G3 X13.4659 Y22.2436 I-3.0868 J-10.3626
G3 X12.3846 Y22.3959 I-2.1104 J-11.064
G3 X11.2296 Y22.4488 I-1.1549 J-12.5882
G3 X10.0747 Y22.3959 I0 J-12.641
G3 X8.9934 Y22.2436 I1.0291 J-11.2164
G3 X7.9324 Y21.9851 I2.0259 J-10.6211
G3 X6.9243 Y21.6272 I2.961 J-9.9402
G3 X5.9584 Y21.1674 I3.9691 J-9.5824
G3 X5.0254 Y20.6 I5.1447 J-9.5102
G3 X4.1531 Y19.9431 I6.3312 J-9.3157
G3 X3.2991 Y19.1639 I8.0845 J-9.7178
G3 X2.5198 Y18.3098 I8.9386 J-8.9386
G3 X1.8629 Y17.4375 I8.6588 J-7.2035
G3 X1.7934 Y17.3339 I8.9428 J-6.0777
G3 X1.5269 Y16.911 I9.0123 J-5.9742
G3 X1.2955 Y16.5045 I9.2788 J-5.5512
G3 X0.8357 Y15.5386 I9.1226 J-4.935
G3 X0.4778 Y14.5305 I9.5824 J-3.9691
G3 X0.2193 Y13.4695 I10.3626 J-3.0868
G3 X0.067 Y12.3882 I11.064 J-2.1104
G3 X0.0141 Y11.2333 I12.5882 J-1.1549
G3 X0.067 Y10.0784 I12.641 J0
G3 X0.2193 Y8.9971 I11.2164 J1.0291
G3 X0.4778 Y7.9361 I10.6211 J2.0259
G3 X0.8357 Y6.928 I9.9402 J2.961
G3 X1.2955 Y5.9621 I9.5824 J3.9691
G3 X1.8629 Y5.0291 I9.5102 J5.1447
G3 X2.5198 Y4.1568 I9.3157 J6.3312
G3 X3.1082 Y3.4978 I9.7178 J8.0845
G3 X3.2991 Y3.3027 I9.1294 J8.7436
G3 X3.4611 Y3.1436 I8.9386 J8.9386
G3 X4.1531 Y2.5235 I8.7765 J9.0977
G3 X5.0254 Y1.8666 I7.2035 J8.6588
G3 X5.9584 Y1.2992 I6.0777 J8.9428
G3 X6.9243 Y0.8394 I4.935 J9.1226
G3 X7.9324 Y0.4815 I3.9691 J9.5824
G3 X8.9934 Y0.223 I3.0868 J10.3626
G3 X10.0747 Y0.0707 I2.1104 J11.064
G3 X11.2296 Y0.0178 I1.1549 J12.5882
G3 X12.3846 Y0.0707 I0 J12.641
G3 X13.4659 Y0.223 I-1.0291 J11.2164
G3 X14.5268 Y0.4815 I-2.0259 J10.6211
G3 X15.5349 Y0.8394 I-2.961 J9.9402
G3 X16.5008 Y1.2992 I-3.9691 J9.5824
G3 X17.4338 Y1.8666 I-5.1447 J9.5102
G3 X18.3061 Y2.5235 I-6.3312 J9.3157
G3 X19.0129 Y3.1579 I-8.0845 J9.7178
G3 X19.1602 Y3.3027 I-8.7913 J9.0834
G3 X19.3652 Y3.5126 I-8.9386 J8.9386
G3 X19.9395 Y4.1568 I-9.1436 J8.7287
G3 X20.5963 Y5.0291 I-8.6588 J7.2035
G3 X21.1637 Y5.9621 I-8.9428 J6.0777
G3 X21.6235 Y6.928 I-9.1226 J4.935
G3 X21.9814 Y7.9361 I-9.5824 J3.9691
G3 X22.2399 Y8.9971 I-10.3626 J3.0868
G3 X22.3923 Y10.0784 I-11.064 J2.1104
G1 Z-0.45 F30
G3 X22.4451 Y11.2333 I-12.5882 J1.1549 F15
G3 X22.3923 Y12.3882 I-12.641 J0
G3 X22.2399 Y13.4695 I-11.2164 J-1.0291
G3 X21.9814 Y14.5305 I-10.6211 J-2.0259
G3 X21.6235 Y15.5386 I-9.9402 J-2.961
G3 X21.1637 Y16.5045 I-9.5824 J-3.9691
G3 X20.5963 Y17.4375 I-9.5102 J-5.1447
G3 X19.9395 Y18.3098 I-9.3157 J-6.3312
G3 X19.1602 Y19.1639 I-9.7178 J-8.0845
G3 X19.1565 Y19.1675 I-8.9386 J-8.9386
G3 X18.7959 Y19.5138 I-8.9349 J-8.9422
G3 X18.3061 Y19.9431 I-8.5743 J-9.2886
G3 X17.4338 Y20.6 I-7.2035 J-8.6588
G3 X16.5008 Y21.1674 I-6.0777 J-8.9428
G3 X15.5349 Y21.6272 I-4.935 J-9.1226
G3 X14.5268 Y21.9851 I-3.9691 J-9.5824
G3 X13.4659 Y22.2436 I-3.0868 J-10.3626
G3 X12.3846 Y22.3959 I-2.1104 J-11.064
G3 X11.2296 Y22.4488 I-1.1549 J-12.5882
G3 X10.0747 Y22.3959 I0 J-12.641
G3 X8.9934 Y22.2436 I1.0291 J-11.2164
G3 X7.9324 Y21.9851 I2.0259 J-10.6211
G3 X6.9243 Y21.6272 I2.961 J-9.9402
G3 X5.9584 Y21.1674 I3.9691 J-9.5824
G3 X5.0254 Y20.6 I5.1447 J-9.5102
G3 X4.1531 Y19.9431 I6.3312 J-9.3157
G3 X3.2991 Y19.1639 I8.0845 J-9.7178
G3 X2.5198 Y18.3098 I8.9386 J-8.9386
G3 X1.8629 Y17.4375 I8.6588 J-7.2035
G3 X1.7934 Y17.3339 I8.9428 J-6.0777
G3 X1.5269 Y16.911 I9.0123 J-5.9742
G3 X1.2955 Y16.5045 I9.2788 J-5.5512
G3 X0.8357 Y15.5386 I9.1226 J-4.935
G3 X0.4778 Y14.5305 I9.5824 J-3.9691
G3 X0.2193 Y13.4695 I10.3626 J-3.0868
G3 X0.067 Y12.3882 I11.064 J-2.1104
G3 X0.0141 Y11.2333 I12.5882 J-1.1549
G3 X0.067 Y10.0784 I12.641 J0
G3 X0.2193 Y8.9971 I11.2164 J1.0291
G3 X0.4778 Y7.9361 I10.6211 J2.0259
G3 X0.8357 Y6.928 I9.9402 J2.961
G3 X1.2955 Y5.9621 I9.5824 J3.9691
G3 X1.8629 Y5.0291 I9.5102 J5.1447
G3 X2.5198 Y4.1568 I9.3157 J6.3312
G3 X3.1082 Y3.4978 I9.7178 J8.0845
G3 X3.2991 Y3.3027 I9.1294 J8.7436
G3 X3.4611 Y3.1436 I8.9386 J8.9386
G3 X4.1531 Y2.5235 I8.7765 J9.0977
G3 X5.0254 Y1.8666 I7.2035 J8.6588
G3 X5.9584 Y1.2992 I6.0777 J8.9428
G3 X6.9243 Y0.8394 I4.935 J9.1226
G3 X7.9324 Y0.4815 I3.9691 J9.5824
G3 X8.9934 Y0.223 I3.0868 J10.3626
G3 X10.0747 Y0.0707 I2.1104 J11.064
G3 X11.2296 Y0.0178 I1.1549 J12.5882
G3 X12.3846 Y0.0707 I0 J12.641
G3 X13.4659 Y0.223 I-1.0291 J11.2164
G3 X14.5268 Y0.4815 I-2.0259 J10.6211
G3 X15.5349 Y0.8394 I-2.961 J9.9402
G3 X16.5008 Y1.2992 I-3.9691 J9.5824
G3 X17.4338 Y1.8666 I-5.1447 J9.5102
G3 X18.3061 Y2.5235 I-6.3312 J9.3157
G3 X19.0129 Y3.1579 I-8.0845 J9.7178
G3 X19.1602 Y3.3027 I-8.7913 J9.0834
G3 X19.3652 Y3.5126 I-8.9386 J8.9386
G3 X19.9395 Y4.1568 I-9.1436 J8.7287
G3 X20.5963 Y5.0291 I-8.6588 J7.2035
G3 X21.1637 Y5.9621 I-8.9428 J6.0777
G3 X21.6235 Y6.928 I-9.1226 J4.935
G3 X21.9814 Y7.9361 I-9.5824 J3.9691
G3 X22.2399 Y8.9971 I-10.3626 J3.0868
G3 X22.3923 Y10.0784 I-11.064 J2.1104
G1 Z-0.6 F30
G3 X22.4451 Y11.2333 I-12.5882 J1.1549 F15
G3 X22.3923 Y12.3882 I-12.641 J0
G3 X22.2399 Y13.4695 I-11.2164 J-1.0291
G3 X21.9814 Y14.5305 I-10.6211 J-2.0259
G3 X21.6235 Y15.5386 I-9.9402 J-2.961
G3 X21.1637 Y16.5045 I-9.5824 J-3.9691
G3 X20.5963 Y17.4375 I-9.5102 J-5.1447
G3 X19.9395 Y18.3098 I-9.3157 J-6.3312
G3 X19.1602 Y19.1639 I-9.7178 J-8.0845
G3 X19.1565 Y19.1675 I-8.9386 J-8.9386
G3 X18.7959 Y19.5138 I-8.9349 J-8.9422
G3 X18.3061 Y19.9431 I-8.5743 J-9.2886
G3 X17.4338 Y20.6 I-7.2035 J-8.6588
G3 X16.5008 Y21.1674 I-6.0777 J-8.9428
G3 X15.5349 Y21.6272 I-4.935 J-9.1226
G3 X14.5268 Y21.9851 I-3.9691 J-9.5824
G3 X13.4659 Y22.2436 I-3.0868 J-10.3626
G3 X12.3846 Y22.3959 I-2.1104 J-11.064
G3 X11.2296 Y22.4488 I-1.1549 J-12.5882
G3 X10.0747 Y22.3959 I0 J-12.641
G3 X8.9934 Y22.2436 I1.0291 J-11.2164
G3 X7.9324 Y21.9851 I2.0259 J-10.6211
G3 X6.9243 Y21.6272 I2.961 J-9.9402
G3 X5.9584 Y21.1674 I3.9691 J-9.5824
G3 X5.0254 Y20.6 I5.1447 J-9.5102
G3 X4.1531 Y19.9431 I6.3312 J-9.3157
G3 X3.2991 Y19.1639 I8.0845 J-9.7178
G3 X2.5198 Y18.3098 I8.9386 J-8.9386
G3 X1.8629 Y17.4375 I8.6588 J-7.2035
G3 X1.7934 Y17.3339 I8.9428 J-6.0777
G3 X1.5269 Y16.911 I9.0123 J-5.9742
G3 X1.2955 Y16.5045 I9.2788 J-5.5512
G3 X0.8357 Y15.5386 I9.1226 J-4.935
G3 X0.4778 Y14.5305 I9.5824 J-3.9691
G3 X0.2193 Y13.4695 I10.3626 J-3.0868
G3 X0.067 Y12.3882 I11.064 J-2.1104
G3 X0.0141 Y11.2333 I12.5882 J-1.1549
G3 X0.067 Y10.0784 I12.641 J0
G3 X0.2193 Y8.9971 I11.2164 J1.0291
G3 X0.4778 Y7.9361 I10.6211 J2.0259
G3 X0.8357 Y6.928 I9.9402 J2.961
G3 X1.2955 Y5.9621 I9.5824 J3.9691
G3 X1.8629 Y5.0291 I9.5102 J5.1447
G3 X2.5198 Y4.1568 I9.3157 J6.3312
G3 X3.1082 Y3.4978 I9.7178 J8.0845
G3 X3.2991 Y3.3027 I9.1294 J8.7436
G3 X3.4611 Y3.1436 I8.9386 J8.9386
G3 X4.1531 Y2.5235 I8.7765 J9.0977
G3 X5.0254 Y1.8666 I7.2035 J8.6588
G3 X5.9584 Y1.2992 I6.0777 J8.9428
G3 X6.9243 Y0.8394 I4.935 J9.1226
G3 X7.9324 Y0.4815 I3.9691 J9.5824
G3 X8.9934 Y0.223 I3.0868 J10.3626
G3 X10.0747 Y0.0707 I2.1104 J11.064
G3 X11.2296 Y0.0178 I1.1549 J12.5882
G3 X12.3846 Y0.0707 I0 J12.641
G3 X13.4659 Y0.223 I-1.0291 J11.2164
G3 X14.5268 Y0.4815 I-2.0259 J10.6211
G3 X15.5349 Y0.8394 I-2.961 J9.9402
G3 X16.5008 Y1.2992 I-3.9691 J9.5824
G3 X17.4338 Y1.8666 I-5.1447 J9.5102
G3 X18.3061 Y2.5235 I-6.3312 J9.3157
G3 X19.0129 Y3.1579 I-8.0845 J9.7178
G3 X19.1602 Y3.3027 I-8.7913 J9.0834
G3 X19.3652 Y3.5126 I-8.9386 J8.9386
G3 X19.9395 Y4.1568 I-9.1436 J8.7287
G3 X20.5963 Y5.0291 I-8.6588 J7.2035
G3 X21.1637 Y5.9621 I-8.9428 J6.0777
G3 X21.6235 Y6.928 I-9.1226 J4.935
G3 X21.9814 Y7.9361 I-9.5824 J3.9691
G3 X22.2399 Y8.9971 I-10.3626 J3.0868
G3 X22.3923 Y10.0784 I-11.064 J2.1104
G1 Z-0.75 F30
G3 X22.4451 Y11.2333 I-12.5882 J1.1549 F15
G3 X22.3923 Y12.3882 I-12.641 J0
G3 X22.2399 Y13.4695 I-11.2164 J-1.0291
G3 X21.9814 Y14.5305 I-10.6211 J-2.0259
G3 X21.6235 Y15.5386 I-9.9402 J-2.961
G3 X21.1637 Y16.5045 I-9.5824 J-3.9691
G3 X20.5963 Y17.4375 I-9.5102 J-5.1447
G3 X19.9395 Y18.3098 I-9.3157 J-6.3312
G3 X19.1602 Y19.1639 I-9.7178 J-8.0845
G3 X19.1565 Y19.1675 I-8.9386 J-8.9386
G1 Z-0.65 F30
G3 X18.7959 Y19.5138 I-8.9349 J-8.9422 F15
G1 Z-0.75 F30
G3 X18.3061 Y19.9431 I-8.5743 J-9.2886 F15
G3 X17.4338 Y20.6 I-7.2035 J-8.6588
G3 X16.5008 Y21.1674 I-6.0777 J-8.9428
G3 X15.5349 Y21.6272 I-4.935 J-9.1226
G3 X14.5268 Y21.9851 I-3.9691 J-9.5824
G3 X13.4659 Y22.2436 I-3.0868 J-10.3626
G3 X12.3846 Y22.3959 I-2.1104 J-11.064
G3 X11.2296 Y22.4488 I-1.1549 J-12.5882
G3 X10.0747 Y22.3959 I0 J-12.641
G3 X8.9934 Y22.2436 I1.0291 J-11.2164
G3 X7.9324 Y21.9851 I2.0259 J-10.6211
G3 X6.9243 Y21.6272 I2.961 J-9.9402
G3 X5.9584 Y21.1674 I3.9691 J-9.5824
G3 X5.0254 Y20.6 I5.1447 J-9.5102
G3 X4.1531 Y19.9431 I6.3312 J-9.3157
G3 X3.2991 Y19.1639 I8.0845 J-9.7178
G3 X2.5198 Y18.3098 I8.9386 J-8.9386
G3 X1.8629 Y17.4375 I8.6588 J-7.2035
G3 X1.7934 Y17.3339 I8.9428 J-6.0777
G1 Z-0.65 F30
G3 X1.5269 Y16.911 I9.0123 J-5.9742 F15
G1 Z-0.75 F30
G3 X1.2955 Y16.5045 I9.2788 J-5.5512 F15
G3 X0.8357 Y15.5386 I9.1226 J-4.935
G3 X0.4778 Y14.5305 I9.5824 J-3.9691
G3 X0.2193 Y13.4695 I10.3626 J-3.0868
G3 X0.067 Y12.3882 I11.064 J-2.1104
G3 X0.0141 Y11.2333 I12.5882 J-1.1549
G3 X0.067 Y10.0784 I12.641 J0
G3 X0.2193 Y8.9971 I11.2164 J1.0291
G3 X0.4778 Y7.9361 I10.6211 J2.0259
G3 X0.8357 Y6.928 I9.9402 J2.961
G3 X1.2955 Y5.9621 I9.5824 J3.9691
G3 X1.8629 Y5.0291 I9.5102 J5.1447
G3 X2.5198 Y4.1568 I9.3157 J6.3312
G3 X3.1082 Y3.4978 I9.7178 J8.0845
G1 Z-0.65 F30
G3 X3.2991 Y3.3027 I9.1294 J8.7436 F15
G3 X3.4611 Y3.1436 I8.9386 J8.9386
G1 Z-0.75 F30
G3 X4.1531 Y2.5235 I8.7765 J9.0977 F15
G3 X5.0254 Y1.8666 I7.2035 J8.6588
G3 X5.9584 Y1.2992 I6.0777 J8.9428
G3 X6.9243 Y0.8394 I4.935 J9.1226
G3 X7.9324 Y0.4815 I3.9691 J9.5824
G3 X8.9934 Y0.223 I3.0868 J10.3626
G3 X10.0747 Y0.0707 I2.1104 J11.064
G3 X11.2296 Y0.0178 I1.1549 J12.5882
G3 X12.3846 Y0.0707 I0 J12.641
G3 X13.4659 Y0.223 I-1.0291 J11.2164
G3 X14.5268 Y0.4815 I-2.0259 J10.6211
G3 X15.5349 Y0.8394 I-2.961 J9.9402
G3 X16.5008 Y1.2992 I-3.9691 J9.5824
G3 X17.4338 Y1.8666 I-5.1447 J9.5102
G3 X18.3061 Y2.5235 I-6.3312 J9.3157
G3 X19.0129 Y3.1579 I-8.0845 J9.7178
G1 Z-0.65 F30
G3 X19.1602 Y3.3027 I-8.7913 J9.0834 F15
G3 X19.3652 Y3.5126 I-8.9386 J8.9386
G1 Z-0.75 F30
G3 X19.9395 Y4.1568 I-9.1436 J8.7287 F15
G3 X20.5963 Y5.0291 I-8.6588 J7.2035
G3 X21.1637 Y5.9621 I-8.9428 J6.0777
G3 X21.6235 Y6.928 I-9.1226 J4.935
G3 X21.9814 Y7.9361 I-9.5824 J3.9691
G3 X22.2399 Y8.9971 I-10.3626 J3.0868
G3 X22.3923 Y10.0784 I-11.064 J2.1104
G0 Z0.125
M5
M30
