(Legs for Bucket Stand - Setup for 23/32 inch stock or 3/4 inch)
(Generated by PartKam Version 0.05)

G20 G90 G40

(bottomLeg1)
G0 Z0.125
T0 M6
G17
M3
G0 X10.5517 Y0.7086
G1 Z-0.15 F30
G2 X11.0517 Y0.7034 I-2.0194 J-219.4622 F15
G2 X13.96 Y0.6507 I-2.5194 J-219.4571
G2 X15.6641 Y0.6031 I-6.5184 J-263.4929
G2 X17.5693 Y0.5381 I-10.2811 J-329.407
G2 X18.5218 Y0.5016 I-13.2071 J-356.9274
G2 X19.5245 Y0.4605 I-15.6972 J-395.6478
G1 X19.776 Y0.4498
G1 X20.029 Y0.4389
G1 X20.2836 Y0.4278
G1 X20.5398 Y0.4164
G1 X20.7976 Y0.4048
G1 X21.0569 Y0.393
G1 X21.3178 Y0.381
G1 X21.5723 Y0.3691
G1 X22.6598 Y0.1774
G3 X22.7576 Y0.1731 I0.0651 J0.3693
G3 X22.8532 Y0.1943 I-0.0327 J0.3736
G3 X22.94 Y0.2395 I-0.1283 J0.3524
G3 X23.0122 Y0.3056 I-0.2151 J0.3072
G3 X23.0648 Y0.3882 I-0.2873 J0.241
G3 X23.0942 Y0.4816 I-0.3399 J0.1585
G1 X23.2679 Y1.4664
G3 X23.2736 Y1.5315 I-0.3693 J0.0651
G3 X23.2721 Y1.5642 I-0.375 J0
G3 X23.2509 Y1.6597 I-0.3736 J-0.0327
G3 X23.2057 Y1.7466 I-0.3524 J-0.1283
G3 X23.1396 Y1.8188 I-0.3072 J-0.2151
G3 X23.057 Y1.8714 I-0.241 J-0.2873
G3 X22.9637 Y1.9008 I-0.1585 J-0.3399
G1 X22.6069 Y1.9637
G3 X22.4621 Y1.8623 I-0.0217 J-0.1231
G1 X22.3302 Y1.1141
G3 X22.3283 Y1.0924 I0.1231 J-0.0217
G3 X22.3507 Y1.021 I0.125 J0
G3 X22.2702 Y1.0721 I-0.1022 J-0.072
G1 X21.8798 Y1.141
G3 X21.7865 Y1.1204 I-0.0217 J-0.1231
G3 X21.8378 Y1.201 I-0.0718 J0.1023
G1 X21.9697 Y1.9491
G3 X21.9716 Y1.9708 I-0.1231 J0.0217
G3 X21.8528 Y2.0957 I-0.125 J0
G1 X21.5947 Y2.1084
G1 X21.3382 Y2.121
G1 X21.0832 Y2.1335
G1 X20.8446 Y2.145
G1 X20.8296 Y2.1457
G1 X20.5776 Y2.1578
G1 X20.3451 Y2.1689
G1 X20.3271 Y2.1698
G1 X20.0781 Y2.1815
G1 X19.8306 Y2.1931
G1 X19.5846 Y2.2045
G1 X19.3401 Y2.2158
G1 X19.0972 Y2.2268
G1 X18.8557 Y2.2377
G1 X18.6157 Y2.2485
G1 X18.3773 Y2.259
G1 X18.1403 Y2.2695
G1 X17.9049 Y2.2797
G1 X17.671 Y2.2897
G1 X17.4385 Y2.2996
G1 X17.2076 Y2.3094
G1 X16.9782 Y2.3189
G1 X16.7503 Y2.3283
G1 X16.5239 Y2.3375
G1 X16.299 Y2.3466
G1 X16.0756 Y2.3555
G1 X15.8537 Y2.3642
G1 X15.6334 Y2.3727
G1 X15.4145 Y2.3811
G1 X15.1971 Y2.3893
G1 X14.9813 Y2.3973
G1 X14.767 Y2.4052
G3 X14.5534 Y2.4129 I-14.4872 J-397.5945
G3 X14.3428 Y2.4204 I-13.8724 J-386.426
G3 X10.973 Y2.5228 I-12.0063 J-339.6082
G3 X8.3755 Y2.5721 I-5.1273 J-201.6764
G3 X5.7772 Y2.5821 I-1.8746 J-149.4831
G3 X3.9495 Y2.5507 I0.3579 J-73.9279
G3 X3.0356 Y2.516 I1.616 J-54.6383
G3 X2.6712 Y2.4972 I1.5807 J-34.1159
G3 X2.3134 Y2.4749 I1.9451 J-34.0971
G3 X2.1722 Y2.4649 I1.7657 J-26.1267
G3 X1.5917 Y2.4161 I1.9069 J-26.1168
G3 X1.0598 Y2.3552 I1.3545 J-14.1951
G3 X0.9532 Y2.253 I0.0165 J-0.1239
G1 X0.8971 Y1.9347
G3 X0.8952 Y1.913 I0.1231 J-0.0217
G3 X0.9176 Y1.8415 I0.125 J0
G3 X0.8371 Y1.8927 I-0.1023 J-0.0719
G1 X0.5188 Y1.9488
G3 X0.374 Y1.8474 I-0.0217 J-0.1231
G1 X0.2003 Y0.8626
G3 X0.1984 Y0.8409 I0.1231 J-0.0217
G3 X0.3017 Y0.7178 I0.125 J0
G1 X0.62 Y0.6617
G3 X0.7134 Y0.6824 I0.0217 J0.1231
G3 X0.662 Y0.6017 I0.0717 J-0.1024
G1 X0.6059 Y0.2834
G3 X0.604 Y0.2617 I0.1231 J-0.0217
G3 X0.7599 Y0.1406 I0.125 J0
G2 X1.256 Y0.2507 I1.9936 J-7.8071
G2 X1.9486 Y0.3653 I2.8363 J-14.9959
G2 X2.647 Y0.452 I2.8334 J-19.9715
G2 X3.5444 Y0.5351 I3.4926 J-32.8121
G2 X4.4443 Y0.5962 I3.235 J-41.005
G2 X5.5443 Y0.6488 I3.4771 J-61.1501
G2 X6.6455 Y0.6833 I2.8504 J-73.3902
G2 X7.9473 Y0.7061 I2.4418 J-102.4944
G2 X10.5517 Y0.7086 I1.4251 J-128.1595
G1 Z-0.3 F30
G2 X11.0517 Y0.7034 I-2.0194 J-219.4622 F15
G2 X13.96 Y0.6507 I-2.5194 J-219.4571
G2 X15.6641 Y0.6031 I-6.5184 J-263.4929
G2 X17.5693 Y0.5381 I-10.2811 J-329.407
G2 X18.5218 Y0.5016 I-13.2071 J-356.9274
G2 X19.5245 Y0.4605 I-15.6972 J-395.6478
G1 X19.776 Y0.4498
G1 X20.029 Y0.4389
G1 X20.2836 Y0.4278
G1 X20.5398 Y0.4164
G1 X20.7976 Y0.4048
G1 X21.0569 Y0.393
G1 X21.3178 Y0.381
G1 X21.5723 Y0.3691
G1 X22.6598 Y0.1774
G3 X22.7576 Y0.1731 I0.0651 J0.3693
G3 X22.8532 Y0.1943 I-0.0327 J0.3736
G3 X22.94 Y0.2395 I-0.1283 J0.3524
G3 X23.0122 Y0.3056 I-0.2151 J0.3072
G3 X23.0648 Y0.3882 I-0.2873 J0.241
G3 X23.0942 Y0.4816 I-0.3399 J0.1585
G1 X23.2679 Y1.4664
G3 X23.2736 Y1.5315 I-0.3693 J0.0651
G3 X23.2721 Y1.5642 I-0.375 J0
G3 X23.2509 Y1.6597 I-0.3736 J-0.0327
G3 X23.2057 Y1.7466 I-0.3524 J-0.1283
G3 X23.1396 Y1.8188 I-0.3072 J-0.2151
G3 X23.057 Y1.8714 I-0.241 J-0.2873
G3 X22.9637 Y1.9008 I-0.1585 J-0.3399
G1 X22.6069 Y1.9637
G3 X22.4621 Y1.8623 I-0.0217 J-0.1231
G1 X22.3302 Y1.1141
G3 X22.3283 Y1.0924 I0.1231 J-0.0217
G3 X22.3507 Y1.021 I0.125 J0
G3 X22.2702 Y1.0721 I-0.1022 J-0.072
G1 X21.8798 Y1.141
G3 X21.7865 Y1.1204 I-0.0217 J-0.1231
G3 X21.8378 Y1.201 I-0.0718 J0.1023
G1 X21.9697 Y1.9491
G3 X21.9716 Y1.9708 I-0.1231 J0.0217
G3 X21.8528 Y2.0957 I-0.125 J0
G1 X21.5947 Y2.1084
G1 X21.3382 Y2.121
G1 X21.0832 Y2.1335
G1 X20.8446 Y2.145
G1 X20.8296 Y2.1457
G1 X20.5776 Y2.1578
G1 X20.3451 Y2.1689
G1 X20.3271 Y2.1698
G1 X20.0781 Y2.1815
G1 X19.8306 Y2.1931
G1 X19.5846 Y2.2045
G1 X19.3401 Y2.2158
G1 X19.0972 Y2.2268
G1 X18.8557 Y2.2377
G1 X18.6157 Y2.2485
G1 X18.3773 Y2.259
G1 X18.1403 Y2.2695
G1 X17.9049 Y2.2797
G1 X17.671 Y2.2897
G1 X17.4385 Y2.2996
G1 X17.2076 Y2.3094
G1 X16.9782 Y2.3189
G1 X16.7503 Y2.3283
G1 X16.5239 Y2.3375
G1 X16.299 Y2.3466
G1 X16.0756 Y2.3555
G1 X15.8537 Y2.3642
G1 X15.6334 Y2.3727
G1 X15.4145 Y2.3811
G1 X15.1971 Y2.3893
G1 X14.9813 Y2.3973
G1 X14.767 Y2.4052
G3 X14.5534 Y2.4129 I-14.4872 J-397.5945
G3 X14.3428 Y2.4204 I-13.8724 J-386.426
G3 X10.973 Y2.5228 I-12.0063 J-339.6082
G3 X8.3755 Y2.5721 I-5.1273 J-201.6764
G3 X5.7772 Y2.5821 I-1.8746 J-149.4831
G3 X3.9495 Y2.5507 I0.3579 J-73.9279
G3 X3.0356 Y2.516 I1.616 J-54.6383
G3 X2.6712 Y2.4972 I1.5807 J-34.1159
G3 X2.3134 Y2.4749 I1.9451 J-34.0971
G3 X2.1722 Y2.4649 I1.7657 J-26.1267
G3 X1.5917 Y2.4161 I1.9069 J-26.1168
G3 X1.0598 Y2.3552 I1.3545 J-14.1951
G3 X0.9532 Y2.253 I0.0165 J-0.1239
G1 X0.8971 Y1.9347
G3 X0.8952 Y1.913 I0.1231 J-0.0217
G3 X0.9176 Y1.8415 I0.125 J0
G3 X0.8371 Y1.8927 I-0.1023 J-0.0719
G1 X0.5188 Y1.9488
G3 X0.374 Y1.8474 I-0.0217 J-0.1231
G1 X0.2003 Y0.8626
G3 X0.1984 Y0.8409 I0.1231 J-0.0217
G3 X0.3017 Y0.7178 I0.125 J0
G1 X0.62 Y0.6617
G3 X0.7134 Y0.6824 I0.0217 J0.1231
G3 X0.662 Y0.6017 I0.0717 J-0.1024
G1 X0.6059 Y0.2834
G3 X0.604 Y0.2617 I0.1231 J-0.0217
G3 X0.7599 Y0.1406 I0.125 J0
G2 X1.256 Y0.2507 I1.9936 J-7.8071
G2 X1.9486 Y0.3653 I2.8363 J-14.9959
G2 X2.647 Y0.452 I2.8334 J-19.9715
G2 X3.5444 Y0.5351 I3.4926 J-32.8121
G2 X4.4443 Y0.5962 I3.235 J-41.005
G2 X5.5443 Y0.6488 I3.4771 J-61.1501
G2 X6.6455 Y0.6833 I2.8504 J-73.3902
G2 X7.9473 Y0.7061 I2.4418 J-102.4944
G2 X10.5517 Y0.7086 I1.4251 J-128.1595
G1 Z-0.45 F30
G2 X11.0517 Y0.7034 I-2.0194 J-219.4622 F15
G2 X13.96 Y0.6507 I-2.5194 J-219.4571
G2 X15.6641 Y0.6031 I-6.5184 J-263.4929
G2 X17.5693 Y0.5381 I-10.2811 J-329.407
G2 X18.5218 Y0.5016 I-13.2071 J-356.9274
G2 X19.5245 Y0.4605 I-15.6972 J-395.6478
G1 X19.776 Y0.4498
G1 X20.029 Y0.4389
G1 X20.2836 Y0.4278
G1 X20.5398 Y0.4164
G1 X20.7976 Y0.4048
G1 X21.0569 Y0.393
G1 X21.3178 Y0.381
G1 X21.5723 Y0.3691
G1 X22.6598 Y0.1774
G3 X22.7576 Y0.1731 I0.0651 J0.3693
G3 X22.8532 Y0.1943 I-0.0327 J0.3736
G3 X22.94 Y0.2395 I-0.1283 J0.3524
G3 X23.0122 Y0.3056 I-0.2151 J0.3072
G3 X23.0648 Y0.3882 I-0.2873 J0.241
G3 X23.0942 Y0.4816 I-0.3399 J0.1585
G1 X23.2679 Y1.4664
G3 X23.2736 Y1.5315 I-0.3693 J0.0651
G3 X23.2721 Y1.5642 I-0.375 J0
G3 X23.2509 Y1.6597 I-0.3736 J-0.0327
G3 X23.2057 Y1.7466 I-0.3524 J-0.1283
G3 X23.1396 Y1.8188 I-0.3072 J-0.2151
G3 X23.057 Y1.8714 I-0.241 J-0.2873
G3 X22.9637 Y1.9008 I-0.1585 J-0.3399
G1 X22.6069 Y1.9637
G3 X22.4621 Y1.8623 I-0.0217 J-0.1231
G1 X22.3302 Y1.1141
G3 X22.3283 Y1.0924 I0.1231 J-0.0217
G3 X22.3507 Y1.021 I0.125 J0
G3 X22.2702 Y1.0721 I-0.1022 J-0.072
G1 X21.8798 Y1.141
G3 X21.7865 Y1.1204 I-0.0217 J-0.1231
G3 X21.8378 Y1.201 I-0.0718 J0.1023
G1 X21.9697 Y1.9491
G3 X21.9716 Y1.9708 I-0.1231 J0.0217
G3 X21.8528 Y2.0957 I-0.125 J0
G1 X21.5947 Y2.1084
G1 X21.3382 Y2.121
G1 X21.0832 Y2.1335
G1 X20.8446 Y2.145
G1 X20.8296 Y2.1457
G1 X20.5776 Y2.1578
G1 X20.3451 Y2.1689
G1 X20.3271 Y2.1698
G1 X20.0781 Y2.1815
G1 X19.8306 Y2.1931
G1 X19.5846 Y2.2045
G1 X19.3401 Y2.2158
G1 X19.0972 Y2.2268
G1 X18.8557 Y2.2377
G1 X18.6157 Y2.2485
G1 X18.3773 Y2.259
G1 X18.1403 Y2.2695
G1 X17.9049 Y2.2797
G1 X17.671 Y2.2897
G1 X17.4385 Y2.2996
G1 X17.2076 Y2.3094
G1 X16.9782 Y2.3189
G1 X16.7503 Y2.3283
G1 X16.5239 Y2.3375
G1 X16.299 Y2.3466
G1 X16.0756 Y2.3555
G1 X15.8537 Y2.3642
G1 X15.6334 Y2.3727
G1 X15.4145 Y2.3811
G1 X15.1971 Y2.3893
G1 X14.9813 Y2.3973
G1 X14.767 Y2.4052
G3 X14.5534 Y2.4129 I-14.4872 J-397.5945
G3 X14.3428 Y2.4204 I-13.8724 J-386.426
G3 X10.973 Y2.5228 I-12.0063 J-339.6082
G3 X8.3755 Y2.5721 I-5.1273 J-201.6764
G3 X5.7772 Y2.5821 I-1.8746 J-149.4831
G3 X3.9495 Y2.5507 I0.3579 J-73.9279
G3 X3.0356 Y2.516 I1.616 J-54.6383
G3 X2.6712 Y2.4972 I1.5807 J-34.1159
G3 X2.3134 Y2.4749 I1.9451 J-34.0971
G3 X2.1722 Y2.4649 I1.7657 J-26.1267
G3 X1.5917 Y2.4161 I1.9069 J-26.1168
G3 X1.0598 Y2.3552 I1.3545 J-14.1951
G3 X0.9532 Y2.253 I0.0165 J-0.1239
G1 X0.8971 Y1.9347
G3 X0.8952 Y1.913 I0.1231 J-0.0217
G3 X0.9176 Y1.8415 I0.125 J0
G3 X0.8371 Y1.8927 I-0.1023 J-0.0719
G1 X0.5188 Y1.9488
G3 X0.374 Y1.8474 I-0.0217 J-0.1231
G1 X0.2003 Y0.8626
G3 X0.1984 Y0.8409 I0.1231 J-0.0217
G3 X0.3017 Y0.7178 I0.125 J0
G1 X0.62 Y0.6617
G3 X0.7134 Y0.6824 I0.0217 J0.1231
G3 X0.662 Y0.6017 I0.0717 J-0.1024
G1 X0.6059 Y0.2834
G3 X0.604 Y0.2617 I0.1231 J-0.0217
G3 X0.7599 Y0.1406 I0.125 J0
G2 X1.256 Y0.2507 I1.9936 J-7.8071
G2 X1.9486 Y0.3653 I2.8363 J-14.9959
G2 X2.647 Y0.452 I2.8334 J-19.9715
G2 X3.5444 Y0.5351 I3.4926 J-32.8121
G2 X4.4443 Y0.5962 I3.235 J-41.005
G2 X5.5443 Y0.6488 I3.4771 J-61.1501
G2 X6.6455 Y0.6833 I2.8504 J-73.3902
G2 X7.9473 Y0.7061 I2.4418 J-102.4944
G2 X10.5517 Y0.7086 I1.4251 J-128.1595
G1 Z-0.6 F30
G2 X11.0517 Y0.7034 I-2.0194 J-219.4622 F15
G2 X13.96 Y0.6507 I-2.5194 J-219.4571
G2 X15.6641 Y0.6031 I-6.5184 J-263.4929
G2 X17.5693 Y0.5381 I-10.2811 J-329.407
G2 X18.5218 Y0.5016 I-13.2071 J-356.9274
G2 X19.5245 Y0.4605 I-15.6972 J-395.6478
G1 X19.776 Y0.4498
G1 X20.029 Y0.4389
G1 X20.2836 Y0.4278
G1 X20.5398 Y0.4164
G1 X20.7976 Y0.4048
G1 X21.0569 Y0.393
G1 X21.3178 Y0.381
G1 X21.5723 Y0.3691
G1 X22.6598 Y0.1774
G3 X22.7576 Y0.1731 I0.0651 J0.3693
G3 X22.8532 Y0.1943 I-0.0327 J0.3736
G3 X22.94 Y0.2395 I-0.1283 J0.3524
G3 X23.0122 Y0.3056 I-0.2151 J0.3072
G3 X23.0648 Y0.3882 I-0.2873 J0.241
G3 X23.0942 Y0.4816 I-0.3399 J0.1585
G1 X23.2679 Y1.4664
G3 X23.2736 Y1.5315 I-0.3693 J0.0651
G3 X23.2721 Y1.5642 I-0.375 J0
G3 X23.2509 Y1.6597 I-0.3736 J-0.0327
G3 X23.2057 Y1.7466 I-0.3524 J-0.1283
G3 X23.1396 Y1.8188 I-0.3072 J-0.2151
G3 X23.057 Y1.8714 I-0.241 J-0.2873
G3 X22.9637 Y1.9008 I-0.1585 J-0.3399
G1 X22.6069 Y1.9637
G3 X22.4621 Y1.8623 I-0.0217 J-0.1231
G1 X22.3302 Y1.1141
G3 X22.3283 Y1.0924 I0.1231 J-0.0217
G3 X22.3507 Y1.021 I0.125 J0
G3 X22.2702 Y1.0721 I-0.1022 J-0.072
G1 X21.8798 Y1.141
G3 X21.7865 Y1.1204 I-0.0217 J-0.1231
G3 X21.8378 Y1.201 I-0.0718 J0.1023
G1 X21.9697 Y1.9491
G3 X21.9716 Y1.9708 I-0.1231 J0.0217
G3 X21.8528 Y2.0957 I-0.125 J0
G1 X21.5947 Y2.1084
G1 X21.3382 Y2.121
G1 X21.0832 Y2.1335
G1 X20.8446 Y2.145
G1 X20.8296 Y2.1457
G1 X20.5776 Y2.1578
G1 X20.3451 Y2.1689
G1 X20.3271 Y2.1698
G1 X20.0781 Y2.1815
G1 X19.8306 Y2.1931
G1 X19.5846 Y2.2045
G1 X19.3401 Y2.2158
G1 X19.0972 Y2.2268
G1 X18.8557 Y2.2377
G1 X18.6157 Y2.2485
G1 X18.3773 Y2.259
G1 X18.1403 Y2.2695
G1 X17.9049 Y2.2797
G1 X17.671 Y2.2897
G1 X17.4385 Y2.2996
G1 X17.2076 Y2.3094
G1 X16.9782 Y2.3189
G1 X16.7503 Y2.3283
G1 X16.5239 Y2.3375
G1 X16.299 Y2.3466
G1 X16.0756 Y2.3555
G1 X15.8537 Y2.3642
G1 X15.6334 Y2.3727
G1 X15.4145 Y2.3811
G1 X15.1971 Y2.3893
G1 X14.9813 Y2.3973
G1 X14.767 Y2.4052
G3 X14.5534 Y2.4129 I-14.4872 J-397.5945
G3 X14.3428 Y2.4204 I-13.8724 J-386.426
G3 X10.973 Y2.5228 I-12.0063 J-339.6082
G3 X8.3755 Y2.5721 I-5.1273 J-201.6764
G3 X5.7772 Y2.5821 I-1.8746 J-149.4831
G3 X3.9495 Y2.5507 I0.3579 J-73.9279
G3 X3.0356 Y2.516 I1.616 J-54.6383
G3 X2.6712 Y2.4972 I1.5807 J-34.1159
G3 X2.3134 Y2.4749 I1.9451 J-34.0971
G3 X2.1722 Y2.4649 I1.7657 J-26.1267
G3 X1.5917 Y2.4161 I1.9069 J-26.1168
G3 X1.0598 Y2.3552 I1.3545 J-14.1951
G3 X0.9532 Y2.253 I0.0165 J-0.1239
G1 X0.8971 Y1.9347
G3 X0.8952 Y1.913 I0.1231 J-0.0217
G3 X0.9176 Y1.8415 I0.125 J0
G3 X0.8371 Y1.8927 I-0.1023 J-0.0719
G1 X0.5188 Y1.9488
G3 X0.374 Y1.8474 I-0.0217 J-0.1231
G1 X0.2003 Y0.8626
G3 X0.1984 Y0.8409 I0.1231 J-0.0217
G3 X0.3017 Y0.7178 I0.125 J0
G1 X0.62 Y0.6617
G3 X0.7134 Y0.6824 I0.0217 J0.1231
G3 X0.662 Y0.6017 I0.0717 J-0.1024
G1 X0.6059 Y0.2834
G3 X0.604 Y0.2617 I0.1231 J-0.0217
G3 X0.7599 Y0.1406 I0.125 J0
G2 X1.256 Y0.2507 I1.9936 J-7.8071
G2 X1.9486 Y0.3653 I2.8363 J-14.9959
G2 X2.647 Y0.452 I2.8334 J-19.9715
G2 X3.5444 Y0.5351 I3.4926 J-32.8121
G2 X4.4443 Y0.5962 I3.235 J-41.005
G2 X5.5443 Y0.6488 I3.4771 J-61.1501
G2 X6.6455 Y0.6833 I2.8504 J-73.3902
G2 X7.9473 Y0.7061 I2.4418 J-102.4944
G2 X10.5517 Y0.7086 I1.4251 J-128.1595
G1 Z-0.75 F30
G1 Z-0.65 F30
G2 X11.0517 Y0.7034 I-2.0194 J-219.4622 F15
G1 Z-0.75 F30
G2 X13.96 Y0.6507 I-2.5194 J-219.4571 F15
G2 X15.6641 Y0.6031 I-6.5184 J-263.4929
G2 X17.5693 Y0.5381 I-10.2811 J-329.407
G2 X18.5218 Y0.5016 I-13.2071 J-356.9274
G2 X19.5245 Y0.4605 I-15.6972 J-395.6478
G1 X19.776 Y0.4498
G1 X20.029 Y0.4389
G1 X20.2836 Y0.4278
G1 X20.5398 Y0.4164
G1 X20.7976 Y0.4048
G1 X21.0569 Y0.393
G1 X21.3178 Y0.381
G1 X21.5723 Y0.3691
G1 X22.6598 Y0.1774
G3 X22.7576 Y0.1731 I0.0651 J0.3693
G3 X22.8532 Y0.1943 I-0.0327 J0.3736
G3 X22.94 Y0.2395 I-0.1283 J0.3524
G3 X23.0122 Y0.3056 I-0.2151 J0.3072
G3 X23.0648 Y0.3882 I-0.2873 J0.241
G3 X23.0942 Y0.4816 I-0.3399 J0.1585
G1 X23.2679 Y1.4664
G3 X23.2736 Y1.5315 I-0.3693 J0.0651
G3 X23.2721 Y1.5642 I-0.375 J0
G3 X23.2509 Y1.6597 I-0.3736 J-0.0327
G3 X23.2057 Y1.7466 I-0.3524 J-0.1283
G3 X23.1396 Y1.8188 I-0.3072 J-0.2151
G3 X23.057 Y1.8714 I-0.241 J-0.2873
G3 X22.9637 Y1.9008 I-0.1585 J-0.3399
G1 X22.6069 Y1.9637
G3 X22.4621 Y1.8623 I-0.0217 J-0.1231
G1 X22.3302 Y1.1141
G3 X22.3283 Y1.0924 I0.1231 J-0.0217
G3 X22.3507 Y1.021 I0.125 J0
G3 X22.2702 Y1.0721 I-0.1022 J-0.072
G1 X21.8798 Y1.141
G3 X21.7865 Y1.1204 I-0.0217 J-0.1231
G3 X21.8378 Y1.201 I-0.0718 J0.1023
G1 X21.9697 Y1.9491
G3 X21.9716 Y1.9708 I-0.1231 J0.0217
G3 X21.8528 Y2.0957 I-0.125 J0
G1 X21.5947 Y2.1084
G1 X21.3382 Y2.121
G1 X21.0832 Y2.1335
G1 X20.8446 Y2.145
G1 Z-0.65 F30
G1 X20.8296 Y2.1457 F15
G1 X20.5776 Y2.1578
G1 X20.3451 Y2.1689
G1 Z-0.75 F30
G1 X20.3271 Y2.1698 F15
G1 X20.0781 Y2.1815
G1 X19.8306 Y2.1931
G1 X19.5846 Y2.2045
G1 X19.3401 Y2.2158
G1 X19.0972 Y2.2268
G1 X18.8557 Y2.2377
G1 X18.6157 Y2.2485
G1 X18.3773 Y2.259
G1 X18.1403 Y2.2695
G1 X17.9049 Y2.2797
G1 X17.671 Y2.2897
G1 X17.4385 Y2.2996
G1 X17.2076 Y2.3094
G1 X16.9782 Y2.3189
G1 X16.7503 Y2.3283
G1 X16.5239 Y2.3375
G1 X16.299 Y2.3466
G1 X16.0756 Y2.3555
G1 X15.8537 Y2.3642
G1 X15.6334 Y2.3727
G1 X15.4145 Y2.3811
G1 X15.1971 Y2.3893
G1 X14.9813 Y2.3973
G1 X14.767 Y2.4052
G3 X14.5534 Y2.4129 I-14.4872 J-397.5945
G3 X14.3428 Y2.4204 I-13.8724 J-386.426
G3 X10.973 Y2.5228 I-12.0063 J-339.6082
G3 X8.3755 Y2.5721 I-5.1273 J-201.6764
G3 X5.7772 Y2.5821 I-1.8746 J-149.4831
G3 X3.9495 Y2.5507 I0.3579 J-73.9279
G3 X3.0356 Y2.516 I1.616 J-54.6383
G3 X2.6712 Y2.4972 I1.5807 J-34.1159
G1 Z-0.65 F30
G3 X2.3134 Y2.4749 I1.9451 J-34.0971 F15
G3 X2.1722 Y2.4649 I1.7657 J-26.1267
G1 Z-0.75 F30
G3 X1.5917 Y2.4161 I1.9069 J-26.1168 F15
G3 X1.0598 Y2.3552 I1.3545 J-14.1951
G3 X0.9532 Y2.253 I0.0165 J-0.1239
G1 X0.8971 Y1.9347
G3 X0.8952 Y1.913 I0.1231 J-0.0217
G3 X0.9176 Y1.8415 I0.125 J0
G3 X0.8371 Y1.8927 I-0.1023 J-0.0719
G1 X0.5188 Y1.9488
G3 X0.374 Y1.8474 I-0.0217 J-0.1231
G1 X0.2003 Y0.8626
G3 X0.1984 Y0.8409 I0.1231 J-0.0217
G3 X0.3017 Y0.7178 I0.125 J0
G1 X0.62 Y0.6617
G3 X0.7134 Y0.6824 I0.0217 J0.1231
G3 X0.662 Y0.6017 I0.0717 J-0.1024
G1 X0.6059 Y0.2834
G3 X0.604 Y0.2617 I0.1231 J-0.0217
G3 X0.7599 Y0.1406 I0.125 J0
G2 X1.256 Y0.2507 I1.9936 J-7.8071
G2 X1.9486 Y0.3653 I2.8363 J-14.9959
G2 X2.647 Y0.452 I2.8334 J-19.9715
G2 X3.5444 Y0.5351 I3.4926 J-32.8121
G2 X4.4443 Y0.5962 I3.235 J-41.005
G2 X5.5443 Y0.6488 I3.4771 J-61.1501
G2 X6.6455 Y0.6833 I2.8504 J-73.3902
G2 X7.9473 Y0.7061 I2.4418 J-102.4944
G2 X10.5517 Y0.7086 I1.4251 J-128.1595

(middleLeg2)
G0 Z0.125
G0 X12.778 Y4.6059
G1 Z-0.15 F30
G2 X9.3697 Y4.6638 I2.0194 J219.4622 F15
G2 X7.6656 Y4.7114 I6.5184 J263.4929
G2 X5.7604 Y4.7764 I10.2811 J329.407
G2 X4.8079 Y4.8129 I13.2071 J356.9274
G2 X3.8052 Y4.854 I15.6972 J395.6478
G1 X3.5537 Y4.8647
G1 X3.3007 Y4.8756
G1 X3.297 Y4.8758
G1 X3.0461 Y4.8867
G1 X2.7975 Y4.8978
G1 X2.7899 Y4.8981
G1 X2.5321 Y4.9097
G1 X2.2728 Y4.9215
G1 X2.0119 Y4.9335
G1 X1.7574 Y4.9454
G1 X0.6699 Y5.1371
G3 X0.5236 Y5.1339 I-0.0651 J-0.3693
G3 X0.3897 Y5.075 I0.0812 J-0.3661
G3 X0.2885 Y4.9693 I0.2151 J-0.3072
G3 X0.2355 Y4.8329 I0.3163 J-0.2015
G1 X0.0618 Y3.8481
G3 X0.0561 Y3.783 I0.3693 J-0.0651
G3 X0.0576 Y3.7503 I0.375 J0
G3 X0.0788 Y3.6548 I0.3736 J0.0327
G3 X0.124 Y3.5679 I0.3524 J0.1283
G3 X0.1901 Y3.4957 I0.3072 J0.2151
G3 X0.2727 Y3.4431 I0.241 J0.2873
G3 X0.366 Y3.4137 I0.1585 J0.3399
G1 X0.7228 Y3.3508
G3 X0.8676 Y3.4522 I0.0217 J0.1231
G1 X0.9995 Y4.2004
G3 X1.0014 Y4.2221 I-0.1231 J0.0217
G3 X0.979 Y4.2935 I-0.125 J0
G3 X1.0595 Y4.2424 I0.1022 J0.072
G1 X1.4499 Y4.1735
G3 X1.5432 Y4.1941 I0.0217 J0.1231
G3 X1.4919 Y4.1135 I0.0718 J-0.1023
G1 X1.36 Y3.3654
G3 X1.3581 Y3.3437 I0.1231 J-0.0217
G3 X1.4769 Y3.2188 I0.125 J0
G1 X1.735 Y3.2061
G1 X1.9915 Y3.1935
G1 X2.2465 Y3.181
G1 X2.5001 Y3.1688
G1 X2.7521 Y3.1567
G1 X3.0026 Y3.1448
G1 X3.2516 Y3.133
G1 X3.4991 Y3.1214
G1 X3.7451 Y3.11
G1 X3.9896 Y3.0988
G1 X4.2325 Y3.0877
G1 X4.474 Y3.0768
G1 X4.714 Y3.066
G1 X4.9524 Y3.0555
G1 X5.1894 Y3.0451
G1 X5.4248 Y3.0348
G1 X5.6587 Y3.0248
G1 X5.8912 Y3.0149
G1 X6.1221 Y3.0051
G1 X6.3515 Y2.9956
G1 X6.5794 Y2.9862
G1 X6.8058 Y2.977
G1 X7.0307 Y2.9679
G1 X7.2541 Y2.959
G1 X7.476 Y2.9503
G1 X7.6963 Y2.9418
G1 X7.9152 Y2.9334
G1 X8.1326 Y2.9252
G1 X8.3484 Y2.9172
G1 X8.5627 Y2.9093
G3 X8.7763 Y2.9016 I14.4872 J397.5945
G3 X8.9869 Y2.8941 I13.8724 J386.426
G3 X12.3567 Y2.7917 I12.0063 J339.6082
G3 X14.0809 Y2.7552 I5.1273 J201.6764
G3 X14.5808 Y2.7474 I3.4031 J201.7129
G3 X14.9542 Y2.7424 I2.9032 J201.7207
G3 X17.5525 Y2.7324 I1.8746 J149.4831
G3 X19.3802 Y2.7638 I-0.3579 J73.9279
G3 X20.2941 Y2.7985 I-1.616 J54.6383
G3 X21.0163 Y2.8396 I-1.5807 J34.1159
G3 X21.738 Y2.8984 I-1.7657 J26.1267
G3 X22.2699 Y2.9593 I-1.3545 J14.1951
G3 X22.3765 Y3.0615 I-0.0165 J0.1239
G1 X22.4326 Y3.3798
G3 X22.4345 Y3.4015 I-0.1231 J0.0217
G3 X22.4121 Y3.473 I-0.125 J0
G3 X22.4926 Y3.4218 I0.1023 J0.0719
G1 X22.8109 Y3.3657
G3 X22.9557 Y3.4671 I0.0217 J0.1231
G1 X23.1294 Y4.4519
G3 X23.1313 Y4.4736 I-0.1231 J0.0217
G3 X23.028 Y4.5967 I-0.125 J0
G1 X22.7097 Y4.6528
G3 X22.6163 Y4.6321 I-0.0217 J-0.1231
G3 X22.6677 Y4.7128 I-0.0717 J0.1024
G1 X22.7238 Y5.0311
G3 X22.7257 Y5.0528 I-0.1231 J0.0217
G3 X22.5698 Y5.1739 I-0.125 J0
G2 X22.0737 Y5.0638 I-1.9936 J7.8071
G2 X21.3811 Y4.9492 I-2.8363 J14.9959
G2 X20.6827 Y4.8625 I-2.8334 J19.9715
G2 X20.1822 Y4.8131 I-3.4926 J32.8121
G2 X19.7853 Y4.7794 I-2.9921 J32.8615
G2 X19.6839 Y4.7715 I-3.235 J41.005
G2 X18.8854 Y4.7183 I-3.1336 J41.0129
G2 X17.7854 Y4.6657 I-3.4771 J61.1501
G2 X16.6842 Y4.6312 I-2.8504 J73.3902
G2 X15.3824 Y4.6084 I-2.4418 J102.4944
G2 X12.778 Y4.6059 I-1.4251 J128.1595
G1 Z-0.3 F30
G2 X9.3697 Y4.6638 I2.0194 J219.4622 F15
G2 X7.6656 Y4.7114 I6.5184 J263.4929
G2 X5.7604 Y4.7764 I10.2811 J329.407
G2 X4.8079 Y4.8129 I13.2071 J356.9274
G2 X3.8052 Y4.854 I15.6972 J395.6478
G1 X3.5537 Y4.8647
G1 X3.3007 Y4.8756
G1 X3.297 Y4.8758
G1 X3.0461 Y4.8867
G1 X2.7975 Y4.8978
G1 X2.7899 Y4.8981
G1 X2.5321 Y4.9097
G1 X2.2728 Y4.9215
G1 X2.0119 Y4.9335
G1 X1.7574 Y4.9454
G1 X0.6699 Y5.1371
G3 X0.5236 Y5.1339 I-0.0651 J-0.3693
G3 X0.3897 Y5.075 I0.0812 J-0.3661
G3 X0.2885 Y4.9693 I0.2151 J-0.3072
G3 X0.2355 Y4.8329 I0.3163 J-0.2015
G1 X0.0618 Y3.8481
G3 X0.0561 Y3.783 I0.3693 J-0.0651
G3 X0.0576 Y3.7503 I0.375 J0
G3 X0.0788 Y3.6548 I0.3736 J0.0327
G3 X0.124 Y3.5679 I0.3524 J0.1283
G3 X0.1901 Y3.4957 I0.3072 J0.2151
G3 X0.2727 Y3.4431 I0.241 J0.2873
G3 X0.366 Y3.4137 I0.1585 J0.3399
G1 X0.7228 Y3.3508
G3 X0.8676 Y3.4522 I0.0217 J0.1231
G1 X0.9995 Y4.2004
G3 X1.0014 Y4.2221 I-0.1231 J0.0217
G3 X0.979 Y4.2935 I-0.125 J0
G3 X1.0595 Y4.2424 I0.1022 J0.072
G1 X1.4499 Y4.1735
G3 X1.5432 Y4.1941 I0.0217 J0.1231
G3 X1.4919 Y4.1135 I0.0718 J-0.1023
G1 X1.36 Y3.3654
G3 X1.3581 Y3.3437 I0.1231 J-0.0217
G3 X1.4769 Y3.2188 I0.125 J0
G1 X1.735 Y3.2061
G1 X1.9915 Y3.1935
G1 X2.2465 Y3.181
G1 X2.5001 Y3.1688
G1 X2.7521 Y3.1567
G1 X3.0026 Y3.1448
G1 X3.2516 Y3.133
G1 X3.4991 Y3.1214
G1 X3.7451 Y3.11
G1 X3.9896 Y3.0988
G1 X4.2325 Y3.0877
G1 X4.474 Y3.0768
G1 X4.714 Y3.066
G1 X4.9524 Y3.0555
G1 X5.1894 Y3.0451
G1 X5.4248 Y3.0348
G1 X5.6587 Y3.0248
G1 X5.8912 Y3.0149
G1 X6.1221 Y3.0051
G1 X6.3515 Y2.9956
G1 X6.5794 Y2.9862
G1 X6.8058 Y2.977
G1 X7.0307 Y2.9679
G1 X7.2541 Y2.959
G1 X7.476 Y2.9503
G1 X7.6963 Y2.9418
G1 X7.9152 Y2.9334
G1 X8.1326 Y2.9252
G1 X8.3484 Y2.9172
G1 X8.5627 Y2.9093
G3 X8.7763 Y2.9016 I14.4872 J397.5945
G3 X8.9869 Y2.8941 I13.8724 J386.426
G3 X12.3567 Y2.7917 I12.0063 J339.6082
G3 X14.0809 Y2.7552 I5.1273 J201.6764
G3 X14.5808 Y2.7474 I3.4031 J201.7129
G3 X14.9542 Y2.7424 I2.9032 J201.7207
G3 X17.5525 Y2.7324 I1.8746 J149.4831
G3 X19.3802 Y2.7638 I-0.3579 J73.9279
G3 X20.2941 Y2.7985 I-1.616 J54.6383
G3 X21.0163 Y2.8396 I-1.5807 J34.1159
G3 X21.738 Y2.8984 I-1.7657 J26.1267
G3 X22.2699 Y2.9593 I-1.3545 J14.1951
G3 X22.3765 Y3.0615 I-0.0165 J0.1239
G1 X22.4326 Y3.3798
G3 X22.4345 Y3.4015 I-0.1231 J0.0217
G3 X22.4121 Y3.473 I-0.125 J0
G3 X22.4926 Y3.4218 I0.1023 J0.0719
G1 X22.8109 Y3.3657
G3 X22.9557 Y3.4671 I0.0217 J0.1231
G1 X23.1294 Y4.4519
G3 X23.1313 Y4.4736 I-0.1231 J0.0217
G3 X23.028 Y4.5967 I-0.125 J0
G1 X22.7097 Y4.6528
G3 X22.6163 Y4.6321 I-0.0217 J-0.1231
G3 X22.6677 Y4.7128 I-0.0717 J0.1024
G1 X22.7238 Y5.0311
G3 X22.7257 Y5.0528 I-0.1231 J0.0217
G3 X22.5698 Y5.1739 I-0.125 J0
G2 X22.0737 Y5.0638 I-1.9936 J7.8071
G2 X21.3811 Y4.9492 I-2.8363 J14.9959
G2 X20.6827 Y4.8625 I-2.8334 J19.9715
G2 X20.1822 Y4.8131 I-3.4926 J32.8121
G2 X19.7853 Y4.7794 I-2.9921 J32.8615
G2 X19.6839 Y4.7715 I-3.235 J41.005
G2 X18.8854 Y4.7183 I-3.1336 J41.0129
G2 X17.7854 Y4.6657 I-3.4771 J61.1501
G2 X16.6842 Y4.6312 I-2.8504 J73.3902
G2 X15.3824 Y4.6084 I-2.4418 J102.4944
G2 X12.778 Y4.6059 I-1.4251 J128.1595
G1 Z-0.45 F30
G2 X9.3697 Y4.6638 I2.0194 J219.4622 F15
G2 X7.6656 Y4.7114 I6.5184 J263.4929
G2 X5.7604 Y4.7764 I10.2811 J329.407
G2 X4.8079 Y4.8129 I13.2071 J356.9274
G2 X3.8052 Y4.854 I15.6972 J395.6478
G1 X3.5537 Y4.8647
G1 X3.3007 Y4.8756
G1 X3.297 Y4.8758
G1 X3.0461 Y4.8867
G1 X2.7975 Y4.8978
G1 X2.7899 Y4.8981
G1 X2.5321 Y4.9097
G1 X2.2728 Y4.9215
G1 X2.0119 Y4.9335
G1 X1.7574 Y4.9454
G1 X0.6699 Y5.1371
G3 X0.5236 Y5.1339 I-0.0651 J-0.3693
G3 X0.3897 Y5.075 I0.0812 J-0.3661
G3 X0.2885 Y4.9693 I0.2151 J-0.3072
G3 X0.2355 Y4.8329 I0.3163 J-0.2015
G1 X0.0618 Y3.8481
G3 X0.0561 Y3.783 I0.3693 J-0.0651
G3 X0.0576 Y3.7503 I0.375 J0
G3 X0.0788 Y3.6548 I0.3736 J0.0327
G3 X0.124 Y3.5679 I0.3524 J0.1283
G3 X0.1901 Y3.4957 I0.3072 J0.2151
G3 X0.2727 Y3.4431 I0.241 J0.2873
G3 X0.366 Y3.4137 I0.1585 J0.3399
G1 X0.7228 Y3.3508
G3 X0.8676 Y3.4522 I0.0217 J0.1231
G1 X0.9995 Y4.2004
G3 X1.0014 Y4.2221 I-0.1231 J0.0217
G3 X0.979 Y4.2935 I-0.125 J0
G3 X1.0595 Y4.2424 I0.1022 J0.072
G1 X1.4499 Y4.1735
G3 X1.5432 Y4.1941 I0.0217 J0.1231
G3 X1.4919 Y4.1135 I0.0718 J-0.1023
G1 X1.36 Y3.3654
G3 X1.3581 Y3.3437 I0.1231 J-0.0217
G3 X1.4769 Y3.2188 I0.125 J0
G1 X1.735 Y3.2061
G1 X1.9915 Y3.1935
G1 X2.2465 Y3.181
G1 X2.5001 Y3.1688
G1 X2.7521 Y3.1567
G1 X3.0026 Y3.1448
G1 X3.2516 Y3.133
G1 X3.4991 Y3.1214
G1 X3.7451 Y3.11
G1 X3.9896 Y3.0988
G1 X4.2325 Y3.0877
G1 X4.474 Y3.0768
G1 X4.714 Y3.066
G1 X4.9524 Y3.0555
G1 X5.1894 Y3.0451
G1 X5.4248 Y3.0348
G1 X5.6587 Y3.0248
G1 X5.8912 Y3.0149
G1 X6.1221 Y3.0051
G1 X6.3515 Y2.9956
G1 X6.5794 Y2.9862
G1 X6.8058 Y2.977
G1 X7.0307 Y2.9679
G1 X7.2541 Y2.959
G1 X7.476 Y2.9503
G1 X7.6963 Y2.9418
G1 X7.9152 Y2.9334
G1 X8.1326 Y2.9252
G1 X8.3484 Y2.9172
G1 X8.5627 Y2.9093
G3 X8.7763 Y2.9016 I14.4872 J397.5945
G3 X8.9869 Y2.8941 I13.8724 J386.426
G3 X12.3567 Y2.7917 I12.0063 J339.6082
G3 X14.0809 Y2.7552 I5.1273 J201.6764
G3 X14.5808 Y2.7474 I3.4031 J201.7129
G3 X14.9542 Y2.7424 I2.9032 J201.7207
G3 X17.5525 Y2.7324 I1.8746 J149.4831
G3 X19.3802 Y2.7638 I-0.3579 J73.9279
G3 X20.2941 Y2.7985 I-1.616 J54.6383
G3 X21.0163 Y2.8396 I-1.5807 J34.1159
G3 X21.738 Y2.8984 I-1.7657 J26.1267
G3 X22.2699 Y2.9593 I-1.3545 J14.1951
G3 X22.3765 Y3.0615 I-0.0165 J0.1239
G1 X22.4326 Y3.3798
G3 X22.4345 Y3.4015 I-0.1231 J0.0217
G3 X22.4121 Y3.473 I-0.125 J0
G3 X22.4926 Y3.4218 I0.1023 J0.0719
G1 X22.8109 Y3.3657
G3 X22.9557 Y3.4671 I0.0217 J0.1231
G1 X23.1294 Y4.4519
G3 X23.1313 Y4.4736 I-0.1231 J0.0217
G3 X23.028 Y4.5967 I-0.125 J0
G1 X22.7097 Y4.6528
G3 X22.6163 Y4.6321 I-0.0217 J-0.1231
G3 X22.6677 Y4.7128 I-0.0717 J0.1024
G1 X22.7238 Y5.0311
G3 X22.7257 Y5.0528 I-0.1231 J0.0217
G3 X22.5698 Y5.1739 I-0.125 J0
G2 X22.0737 Y5.0638 I-1.9936 J7.8071
G2 X21.3811 Y4.9492 I-2.8363 J14.9959
G2 X20.6827 Y4.8625 I-2.8334 J19.9715
G2 X20.1822 Y4.8131 I-3.4926 J32.8121
G2 X19.7853 Y4.7794 I-2.9921 J32.8615
G2 X19.6839 Y4.7715 I-3.235 J41.005
G2 X18.8854 Y4.7183 I-3.1336 J41.0129
G2 X17.7854 Y4.6657 I-3.4771 J61.1501
G2 X16.6842 Y4.6312 I-2.8504 J73.3902
G2 X15.3824 Y4.6084 I-2.4418 J102.4944
G2 X12.778 Y4.6059 I-1.4251 J128.1595
G1 Z-0.6 F30
G2 X9.3697 Y4.6638 I2.0194 J219.4622 F15
G2 X7.6656 Y4.7114 I6.5184 J263.4929
G2 X5.7604 Y4.7764 I10.2811 J329.407
G2 X4.8079 Y4.8129 I13.2071 J356.9274
G2 X3.8052 Y4.854 I15.6972 J395.6478
G1 X3.5537 Y4.8647
G1 X3.3007 Y4.8756
G1 X3.297 Y4.8758
G1 X3.0461 Y4.8867
G1 X2.7975 Y4.8978
G1 X2.7899 Y4.8981
G1 X2.5321 Y4.9097
G1 X2.2728 Y4.9215
G1 X2.0119 Y4.9335
G1 X1.7574 Y4.9454
G1 X0.6699 Y5.1371
G3 X0.5236 Y5.1339 I-0.0651 J-0.3693
G3 X0.3897 Y5.075 I0.0812 J-0.3661
G3 X0.2885 Y4.9693 I0.2151 J-0.3072
G3 X0.2355 Y4.8329 I0.3163 J-0.2015
G1 X0.0618 Y3.8481
G3 X0.0561 Y3.783 I0.3693 J-0.0651
G3 X0.0576 Y3.7503 I0.375 J0
G3 X0.0788 Y3.6548 I0.3736 J0.0327
G3 X0.124 Y3.5679 I0.3524 J0.1283
G3 X0.1901 Y3.4957 I0.3072 J0.2151
G3 X0.2727 Y3.4431 I0.241 J0.2873
G3 X0.366 Y3.4137 I0.1585 J0.3399
G1 X0.7228 Y3.3508
G3 X0.8676 Y3.4522 I0.0217 J0.1231
G1 X0.9995 Y4.2004
G3 X1.0014 Y4.2221 I-0.1231 J0.0217
G3 X0.979 Y4.2935 I-0.125 J0
G3 X1.0595 Y4.2424 I0.1022 J0.072
G1 X1.4499 Y4.1735
G3 X1.5432 Y4.1941 I0.0217 J0.1231
G3 X1.4919 Y4.1135 I0.0718 J-0.1023
G1 X1.36 Y3.3654
G3 X1.3581 Y3.3437 I0.1231 J-0.0217
G3 X1.4769 Y3.2188 I0.125 J0
G1 X1.735 Y3.2061
G1 X1.9915 Y3.1935
G1 X2.2465 Y3.181
G1 X2.5001 Y3.1688
G1 X2.7521 Y3.1567
G1 X3.0026 Y3.1448
G1 X3.2516 Y3.133
G1 X3.4991 Y3.1214
G1 X3.7451 Y3.11
G1 X3.9896 Y3.0988
G1 X4.2325 Y3.0877
G1 X4.474 Y3.0768
G1 X4.714 Y3.066
G1 X4.9524 Y3.0555
G1 X5.1894 Y3.0451
G1 X5.4248 Y3.0348
G1 X5.6587 Y3.0248
G1 X5.8912 Y3.0149
G1 X6.1221 Y3.0051
G1 X6.3515 Y2.9956
G1 X6.5794 Y2.9862
G1 X6.8058 Y2.977
G1 X7.0307 Y2.9679
G1 X7.2541 Y2.959
G1 X7.476 Y2.9503
G1 X7.6963 Y2.9418
G1 X7.9152 Y2.9334
G1 X8.1326 Y2.9252
G1 X8.3484 Y2.9172
G1 X8.5627 Y2.9093
G3 X8.7763 Y2.9016 I14.4872 J397.5945
G3 X8.9869 Y2.8941 I13.8724 J386.426
G3 X12.3567 Y2.7917 I12.0063 J339.6082
G3 X14.0809 Y2.7552 I5.1273 J201.6764
G3 X14.5808 Y2.7474 I3.4031 J201.7129
G3 X14.9542 Y2.7424 I2.9032 J201.7207
G3 X17.5525 Y2.7324 I1.8746 J149.4831
G3 X19.3802 Y2.7638 I-0.3579 J73.9279
G3 X20.2941 Y2.7985 I-1.616 J54.6383
G3 X21.0163 Y2.8396 I-1.5807 J34.1159
G3 X21.738 Y2.8984 I-1.7657 J26.1267
G3 X22.2699 Y2.9593 I-1.3545 J14.1951
G3 X22.3765 Y3.0615 I-0.0165 J0.1239
G1 X22.4326 Y3.3798
G3 X22.4345 Y3.4015 I-0.1231 J0.0217
G3 X22.4121 Y3.473 I-0.125 J0
G3 X22.4926 Y3.4218 I0.1023 J0.0719
G1 X22.8109 Y3.3657
G3 X22.9557 Y3.4671 I0.0217 J0.1231
G1 X23.1294 Y4.4519
G3 X23.1313 Y4.4736 I-0.1231 J0.0217
G3 X23.028 Y4.5967 I-0.125 J0
G1 X22.7097 Y4.6528
G3 X22.6163 Y4.6321 I-0.0217 J-0.1231
G3 X22.6677 Y4.7128 I-0.0717 J0.1024
G1 X22.7238 Y5.0311
G3 X22.7257 Y5.0528 I-0.1231 J0.0217
G3 X22.5698 Y5.1739 I-0.125 J0
G2 X22.0737 Y5.0638 I-1.9936 J7.8071
G2 X21.3811 Y4.9492 I-2.8363 J14.9959
G2 X20.6827 Y4.8625 I-2.8334 J19.9715
G2 X20.1822 Y4.8131 I-3.4926 J32.8121
G2 X19.7853 Y4.7794 I-2.9921 J32.8615
G2 X19.6839 Y4.7715 I-3.235 J41.005
G2 X18.8854 Y4.7183 I-3.1336 J41.0129
G2 X17.7854 Y4.6657 I-3.4771 J61.1501
G2 X16.6842 Y4.6312 I-2.8504 J73.3902
G2 X15.3824 Y4.6084 I-2.4418 J102.4944
G2 X12.778 Y4.6059 I-1.4251 J128.1595
G1 Z-0.75 F30
G2 X9.3697 Y4.6638 I2.0194 J219.4622 F15
G2 X7.6656 Y4.7114 I6.5184 J263.4929
G2 X5.7604 Y4.7764 I10.2811 J329.407
G2 X4.8079 Y4.8129 I13.2071 J356.9274
G2 X3.8052 Y4.854 I15.6972 J395.6478
G1 X3.5537 Y4.8647
G1 X3.3007 Y4.8756
G1 X3.297 Y4.8758
G1 Z-0.65 F30
G1 X3.0461 Y4.8867 F15
G1 X2.7975 Y4.8978
G1 Z-0.75 F30
G1 X2.7899 Y4.8981 F15
G1 X2.5321 Y4.9097
G1 X2.2728 Y4.9215
G1 X2.0119 Y4.9335
G1 X1.7574 Y4.9454
G1 X0.6699 Y5.1371
G3 X0.5236 Y5.1339 I-0.0651 J-0.3693
G3 X0.3897 Y5.075 I0.0812 J-0.3661
G3 X0.2885 Y4.9693 I0.2151 J-0.3072
G3 X0.2355 Y4.8329 I0.3163 J-0.2015
G1 X0.0618 Y3.8481
G3 X0.0561 Y3.783 I0.3693 J-0.0651
G3 X0.0576 Y3.7503 I0.375 J0
G3 X0.0788 Y3.6548 I0.3736 J0.0327
G3 X0.124 Y3.5679 I0.3524 J0.1283
G3 X0.1901 Y3.4957 I0.3072 J0.2151
G3 X0.2727 Y3.4431 I0.241 J0.2873
G3 X0.366 Y3.4137 I0.1585 J0.3399
G1 X0.7228 Y3.3508
G3 X0.8676 Y3.4522 I0.0217 J0.1231
G1 X0.9995 Y4.2004
G3 X1.0014 Y4.2221 I-0.1231 J0.0217
G3 X0.979 Y4.2935 I-0.125 J0
G3 X1.0595 Y4.2424 I0.1022 J0.072
G1 X1.4499 Y4.1735
G3 X1.5432 Y4.1941 I0.0217 J0.1231
G3 X1.4919 Y4.1135 I0.0718 J-0.1023
G1 X1.36 Y3.3654
G3 X1.3581 Y3.3437 I0.1231 J-0.0217
G3 X1.4769 Y3.2188 I0.125 J0
G1 X1.735 Y3.2061
G1 X1.9915 Y3.1935
G1 X2.2465 Y3.181
G1 X2.5001 Y3.1688
G1 X2.7521 Y3.1567
G1 X3.0026 Y3.1448
G1 X3.2516 Y3.133
G1 X3.4991 Y3.1214
G1 X3.7451 Y3.11
G1 X3.9896 Y3.0988
G1 X4.2325 Y3.0877
G1 X4.474 Y3.0768
G1 X4.714 Y3.066
G1 X4.9524 Y3.0555
G1 X5.1894 Y3.0451
G1 X5.4248 Y3.0348
G1 X5.6587 Y3.0248
G1 X5.8912 Y3.0149
G1 X6.1221 Y3.0051
G1 X6.3515 Y2.9956
G1 X6.5794 Y2.9862
G1 X6.8058 Y2.977
G1 X7.0307 Y2.9679
G1 X7.2541 Y2.959
G1 X7.476 Y2.9503
G1 X7.6963 Y2.9418
G1 X7.9152 Y2.9334
G1 X8.1326 Y2.9252
G1 X8.3484 Y2.9172
G1 X8.5627 Y2.9093
G3 X8.7763 Y2.9016 I14.4872 J397.5945
G3 X8.9869 Y2.8941 I13.8724 J386.426
G3 X12.3567 Y2.7917 I12.0063 J339.6082
G3 X14.0809 Y2.7552 I5.1273 J201.6764
G1 Z-0.65 F30
G3 X14.5808 Y2.7474 I3.4031 J201.7129 F15
G1 Z-0.75 F30
G3 X14.9542 Y2.7424 I2.9032 J201.7207 F15
G3 X17.5525 Y2.7324 I1.8746 J149.4831
G3 X19.3802 Y2.7638 I-0.3579 J73.9279
G3 X20.2941 Y2.7985 I-1.616 J54.6383
G3 X21.0163 Y2.8396 I-1.5807 J34.1159
G3 X21.738 Y2.8984 I-1.7657 J26.1267
G3 X22.2699 Y2.9593 I-1.3545 J14.1951
G3 X22.3765 Y3.0615 I-0.0165 J0.1239
G1 X22.4326 Y3.3798
G3 X22.4345 Y3.4015 I-0.1231 J0.0217
G3 X22.4121 Y3.473 I-0.125 J0
G3 X22.4926 Y3.4218 I0.1023 J0.0719
G1 X22.8109 Y3.3657
G3 X22.9557 Y3.4671 I0.0217 J0.1231
G1 X23.1294 Y4.4519
G3 X23.1313 Y4.4736 I-0.1231 J0.0217
G3 X23.028 Y4.5967 I-0.125 J0
G1 X22.7097 Y4.6528
G3 X22.6163 Y4.6321 I-0.0217 J-0.1231
G3 X22.6677 Y4.7128 I-0.0717 J0.1024
G1 X22.7238 Y5.0311
G3 X22.7257 Y5.0528 I-0.1231 J0.0217
G3 X22.5698 Y5.1739 I-0.125 J0
G2 X22.0737 Y5.0638 I-1.9936 J7.8071
G2 X21.3811 Y4.9492 I-2.8363 J14.9959
G2 X20.6827 Y4.8625 I-2.8334 J19.9715
G2 X20.1822 Y4.8131 I-3.4926 J32.8121
G1 Z-0.65 F30
G2 X19.7853 Y4.7794 I-2.9921 J32.8615 F15
G2 X19.6839 Y4.7715 I-3.235 J41.005
G1 Z-0.75 F30
G2 X18.8854 Y4.7183 I-3.1336 J41.0129 F15
G2 X17.7854 Y4.6657 I-3.4771 J61.1501
G2 X16.6842 Y4.6312 I-2.8504 J73.3902
G2 X15.3824 Y4.6084 I-2.4418 J102.4944
G2 X12.778 Y4.6059 I-1.4251 J128.1595

(topLeg3)
G0 Z0.125
G0 X12.7951 Y6.9555
G1 Z-0.15 F30
G2 X9.3868 Y7.0133 I2.0194 J219.4622 F15
G2 X7.6828 Y7.061 I6.5184 J263.4929
G2 X5.7776 Y7.1259 I10.2811 J329.407
G2 X4.8251 Y7.1625 I13.2071 J356.9274
G2 X4.189 Y7.1882 I15.6972 J395.6478
G2 X3.8223 Y7.2035 I16.3333 J395.622
G1 X3.6895 Y7.2092
G1 X3.5709 Y7.2142
G1 X3.3178 Y7.2251
G1 X3.0632 Y7.2363
G1 X2.807 Y7.2476
G1 X2.5493 Y7.2592
G1 X2.2899 Y7.271
G1 X2.0291 Y7.283
G1 X1.7745 Y7.2949
G1 X0.6871 Y7.4866
G3 X0.5408 Y7.4835 I-0.0651 J-0.3693
G3 X0.4068 Y7.4245 I0.0812 J-0.3661
G3 X0.3057 Y7.3188 I0.2151 J-0.3072
G3 X0.2526 Y7.1825 I0.3163 J-0.2015
G1 X0.079 Y6.1977
G3 X0.0733 Y6.1325 I0.3693 J-0.0651
G3 X0.0822 Y6.0514 I0.375 J0
G3 X0.1411 Y5.9174 I0.3661 J0.0812
G3 X0.2468 Y5.8163 I0.3072 J0.2151
G3 X0.3832 Y5.7632 I0.2015 J0.3163
G1 X0.7399 Y5.7003
G3 X0.8847 Y5.8017 I0.0217 J0.1231
G1 X1.0167 Y6.5499
G3 X1.0186 Y6.5716 I-0.1231 J0.0217
G3 X0.9961 Y6.643 I-0.125 J0
G3 X1.0766 Y6.5919 I0.1022 J0.072
G1 X1.4671 Y6.523
G3 X1.5603 Y6.5437 I0.0217 J0.1231
G3 X1.5091 Y6.4631 I0.0718 J-0.1023
G1 X1.3771 Y5.7149
G3 X1.3752 Y5.6932 I0.1231 J-0.0217
G3 X1.4941 Y5.5683 I0.125 J0
G1 X1.7521 Y5.5556
G1 X2.0086 Y5.543
G1 X2.2637 Y5.5306
G1 X2.5172 Y5.5183
G1 X2.7692 Y5.5062
G1 X3.0197 Y5.4943
G1 X3.2687 Y5.4825
G1 X3.5162 Y5.4709
G1 X3.7622 Y5.4595
G1 X4.0067 Y5.4483
G1 X4.2497 Y5.4372
G1 X4.4911 Y5.4263
G1 X4.7311 Y5.4156
G1 X4.9696 Y5.405
G1 X5.2065 Y5.3946
G1 X5.4419 Y5.3843
G1 X5.6759 Y5.3743
G1 X5.9083 Y5.3644
G1 X6.1392 Y5.3547
G1 X6.3686 Y5.3451
G1 X6.5965 Y5.3357
G1 X6.8229 Y5.3265
G1 X7.0478 Y5.3174
G1 X7.2712 Y5.3086
G1 X7.4931 Y5.2999
G1 X7.7135 Y5.2913
G1 X7.9323 Y5.2829
G1 X8.1497 Y5.2747
G1 X8.3656 Y5.2667
G1 X8.5799 Y5.2588
G3 X8.7935 Y5.2511 I14.4872 J397.5945
G3 X9.004 Y5.2436 I13.8724 J386.426
G3 X12.3739 Y5.1412 I12.0063 J339.6082
G3 X14.098 Y5.1047 I5.1273 J201.6764
G3 X14.598 Y5.0969 I3.4031 J201.7129
G3 X14.9714 Y5.0919 I2.9032 J201.7207
G3 X17.5696 Y5.0819 I1.8746 J149.4831
G3 X19.3973 Y5.1133 I-0.3579 J73.9279
G3 X20.3112 Y5.148 I-1.616 J54.6383
G3 X21.0335 Y5.1892 I-1.5807 J34.1159
G3 X21.7552 Y5.248 I-1.7657 J26.1267
G3 X22.2871 Y5.3088 I-1.3545 J14.1951
G3 X22.3937 Y5.411 I-0.0165 J0.1239
G1 X22.4498 Y5.7293
G3 X22.4517 Y5.751 I-0.1231 J0.0217
G3 X22.4292 Y5.8225 I-0.125 J0
G3 X22.5098 Y5.7713 I0.1023 J0.0719
G1 X22.8281 Y5.7152
G3 X22.9729 Y5.8166 I0.0217 J0.1231
G1 X23.1465 Y6.8014
G3 X23.1484 Y6.8231 I-0.1231 J0.0217
G3 X23.0451 Y6.9462 I-0.125 J0
G1 X22.7268 Y7.0023
G3 X22.6334 Y6.9816 I-0.0217 J-0.1231
G3 X22.6848 Y7.0623 I-0.0717 J0.1024
G1 X22.741 Y7.3806
G3 X22.7429 Y7.4023 I-0.1231 J0.0217
G3 X22.5869 Y7.5235 I-0.125 J0
G2 X22.0908 Y7.4133 I-1.9936 J7.8071
G2 X21.3982 Y7.2987 I-2.8363 J14.9959
G2 X20.6998 Y7.2121 I-2.8334 J19.9715
G2 X20.148 Y7.158 I-3.4926 J32.8121
G2 X19.8025 Y7.1289 I-2.9408 J32.8661
G2 X19.6497 Y7.1172 I-3.235 J41.005
G2 X18.9025 Y7.0678 I-3.0823 J41.0168
G2 X17.8025 Y7.0152 I-3.4771 J61.1501
G2 X16.7013 Y6.9807 I-2.8504 J73.3902
G2 X15.3995 Y6.958 I-2.4418 J102.4944
G2 X12.7951 Y6.9555 I-1.4251 J128.1595
G1 Z-0.3 F30
G2 X9.3868 Y7.0133 I2.0194 J219.4622 F15
G2 X7.6828 Y7.061 I6.5184 J263.4929
G2 X5.7776 Y7.1259 I10.2811 J329.407
G2 X4.8251 Y7.1625 I13.2071 J356.9274
G2 X4.189 Y7.1882 I15.6972 J395.6478
G2 X3.8223 Y7.2035 I16.3333 J395.622
G1 X3.6895 Y7.2092
G1 X3.5709 Y7.2142
G1 X3.3178 Y7.2251
G1 X3.0632 Y7.2363
G1 X2.807 Y7.2476
G1 X2.5493 Y7.2592
G1 X2.2899 Y7.271
G1 X2.0291 Y7.283
G1 X1.7745 Y7.2949
G1 X0.6871 Y7.4866
G3 X0.5408 Y7.4835 I-0.0651 J-0.3693
G3 X0.4068 Y7.4245 I0.0812 J-0.3661
G3 X0.3057 Y7.3188 I0.2151 J-0.3072
G3 X0.2526 Y7.1825 I0.3163 J-0.2015
G1 X0.079 Y6.1977
G3 X0.0733 Y6.1325 I0.3693 J-0.0651
G3 X0.0822 Y6.0514 I0.375 J0
G3 X0.1411 Y5.9174 I0.3661 J0.0812
G3 X0.2468 Y5.8163 I0.3072 J0.2151
G3 X0.3832 Y5.7632 I0.2015 J0.3163
G1 X0.7399 Y5.7003
G3 X0.8847 Y5.8017 I0.0217 J0.1231
G1 X1.0167 Y6.5499
G3 X1.0186 Y6.5716 I-0.1231 J0.0217
G3 X0.9961 Y6.643 I-0.125 J0
G3 X1.0766 Y6.5919 I0.1022 J0.072
G1 X1.4671 Y6.523
G3 X1.5603 Y6.5437 I0.0217 J0.1231
G3 X1.5091 Y6.4631 I0.0718 J-0.1023
G1 X1.3771 Y5.7149
G3 X1.3752 Y5.6932 I0.1231 J-0.0217
G3 X1.4941 Y5.5683 I0.125 J0
G1 X1.7521 Y5.5556
G1 X2.0086 Y5.543
G1 X2.2637 Y5.5306
G1 X2.5172 Y5.5183
G1 X2.7692 Y5.5062
G1 X3.0197 Y5.4943
G1 X3.2687 Y5.4825
G1 X3.5162 Y5.4709
G1 X3.7622 Y5.4595
G1 X4.0067 Y5.4483
G1 X4.2497 Y5.4372
G1 X4.4911 Y5.4263
G1 X4.7311 Y5.4156
G1 X4.9696 Y5.405
G1 X5.2065 Y5.3946
G1 X5.4419 Y5.3843
G1 X5.6759 Y5.3743
G1 X5.9083 Y5.3644
G1 X6.1392 Y5.3547
G1 X6.3686 Y5.3451
G1 X6.5965 Y5.3357
G1 X6.8229 Y5.3265
G1 X7.0478 Y5.3174
G1 X7.2712 Y5.3086
G1 X7.4931 Y5.2999
G1 X7.7135 Y5.2913
G1 X7.9323 Y5.2829
G1 X8.1497 Y5.2747
G1 X8.3656 Y5.2667
G1 X8.5799 Y5.2588
G3 X8.7935 Y5.2511 I14.4872 J397.5945
G3 X9.004 Y5.2436 I13.8724 J386.426
G3 X12.3739 Y5.1412 I12.0063 J339.6082
G3 X14.098 Y5.1047 I5.1273 J201.6764
G3 X14.598 Y5.0969 I3.4031 J201.7129
G3 X14.9714 Y5.0919 I2.9032 J201.7207
G3 X17.5696 Y5.0819 I1.8746 J149.4831
G3 X19.3973 Y5.1133 I-0.3579 J73.9279
G3 X20.3112 Y5.148 I-1.616 J54.6383
G3 X21.0335 Y5.1892 I-1.5807 J34.1159
G3 X21.7552 Y5.248 I-1.7657 J26.1267
G3 X22.2871 Y5.3088 I-1.3545 J14.1951
G3 X22.3937 Y5.411 I-0.0165 J0.1239
G1 X22.4498 Y5.7293
G3 X22.4517 Y5.751 I-0.1231 J0.0217
G3 X22.4292 Y5.8225 I-0.125 J0
G3 X22.5098 Y5.7713 I0.1023 J0.0719
G1 X22.8281 Y5.7152
G3 X22.9729 Y5.8166 I0.0217 J0.1231
G1 X23.1465 Y6.8014
G3 X23.1484 Y6.8231 I-0.1231 J0.0217
G3 X23.0451 Y6.9462 I-0.125 J0
G1 X22.7268 Y7.0023
G3 X22.6334 Y6.9816 I-0.0217 J-0.1231
G3 X22.6848 Y7.0623 I-0.0717 J0.1024
G1 X22.741 Y7.3806
G3 X22.7429 Y7.4023 I-0.1231 J0.0217
G3 X22.5869 Y7.5235 I-0.125 J0
G2 X22.0908 Y7.4133 I-1.9936 J7.8071
G2 X21.3982 Y7.2987 I-2.8363 J14.9959
G2 X20.6998 Y7.2121 I-2.8334 J19.9715
G2 X20.148 Y7.158 I-3.4926 J32.8121
G2 X19.8025 Y7.1289 I-2.9408 J32.8661
G2 X19.6497 Y7.1172 I-3.235 J41.005
G2 X18.9025 Y7.0678 I-3.0823 J41.0168
G2 X17.8025 Y7.0152 I-3.4771 J61.1501
G2 X16.7013 Y6.9807 I-2.8504 J73.3902
G2 X15.3995 Y6.958 I-2.4418 J102.4944
G2 X12.7951 Y6.9555 I-1.4251 J128.1595
G1 Z-0.45 F30
G2 X9.3868 Y7.0133 I2.0194 J219.4622 F15
G2 X7.6828 Y7.061 I6.5184 J263.4929
G2 X5.7776 Y7.1259 I10.2811 J329.407
G2 X4.8251 Y7.1625 I13.2071 J356.9274
G2 X4.189 Y7.1882 I15.6972 J395.6478
G2 X3.8223 Y7.2035 I16.3333 J395.622
G1 X3.6895 Y7.2092
G1 X3.5709 Y7.2142
G1 X3.3178 Y7.2251
G1 X3.0632 Y7.2363
G1 X2.807 Y7.2476
G1 X2.5493 Y7.2592
G1 X2.2899 Y7.271
G1 X2.0291 Y7.283
G1 X1.7745 Y7.2949
G1 X0.6871 Y7.4866
G3 X0.5408 Y7.4835 I-0.0651 J-0.3693
G3 X0.4068 Y7.4245 I0.0812 J-0.3661
G3 X0.3057 Y7.3188 I0.2151 J-0.3072
G3 X0.2526 Y7.1825 I0.3163 J-0.2015
G1 X0.079 Y6.1977
G3 X0.0733 Y6.1325 I0.3693 J-0.0651
G3 X0.0822 Y6.0514 I0.375 J0
G3 X0.1411 Y5.9174 I0.3661 J0.0812
G3 X0.2468 Y5.8163 I0.3072 J0.2151
G3 X0.3832 Y5.7632 I0.2015 J0.3163
G1 X0.7399 Y5.7003
G3 X0.8847 Y5.8017 I0.0217 J0.1231
G1 X1.0167 Y6.5499
G3 X1.0186 Y6.5716 I-0.1231 J0.0217
G3 X0.9961 Y6.643 I-0.125 J0
G3 X1.0766 Y6.5919 I0.1022 J0.072
G1 X1.4671 Y6.523
G3 X1.5603 Y6.5437 I0.0217 J0.1231
G3 X1.5091 Y6.4631 I0.0718 J-0.1023
G1 X1.3771 Y5.7149
G3 X1.3752 Y5.6932 I0.1231 J-0.0217
G3 X1.4941 Y5.5683 I0.125 J0
G1 X1.7521 Y5.5556
G1 X2.0086 Y5.543
G1 X2.2637 Y5.5306
G1 X2.5172 Y5.5183
G1 X2.7692 Y5.5062
G1 X3.0197 Y5.4943
G1 X3.2687 Y5.4825
G1 X3.5162 Y5.4709
G1 X3.7622 Y5.4595
G1 X4.0067 Y5.4483
G1 X4.2497 Y5.4372
G1 X4.4911 Y5.4263
G1 X4.7311 Y5.4156
G1 X4.9696 Y5.405
G1 X5.2065 Y5.3946
G1 X5.4419 Y5.3843
G1 X5.6759 Y5.3743
G1 X5.9083 Y5.3644
G1 X6.1392 Y5.3547
G1 X6.3686 Y5.3451
G1 X6.5965 Y5.3357
G1 X6.8229 Y5.3265
G1 X7.0478 Y5.3174
G1 X7.2712 Y5.3086
G1 X7.4931 Y5.2999
G1 X7.7135 Y5.2913
G1 X7.9323 Y5.2829
G1 X8.1497 Y5.2747
G1 X8.3656 Y5.2667
G1 X8.5799 Y5.2588
G3 X8.7935 Y5.2511 I14.4872 J397.5945
G3 X9.004 Y5.2436 I13.8724 J386.426
G3 X12.3739 Y5.1412 I12.0063 J339.6082
G3 X14.098 Y5.1047 I5.1273 J201.6764
G3 X14.598 Y5.0969 I3.4031 J201.7129
G3 X14.9714 Y5.0919 I2.9032 J201.7207
G3 X17.5696 Y5.0819 I1.8746 J149.4831
G3 X19.3973 Y5.1133 I-0.3579 J73.9279
G3 X20.3112 Y5.148 I-1.616 J54.6383
G3 X21.0335 Y5.1892 I-1.5807 J34.1159
G3 X21.7552 Y5.248 I-1.7657 J26.1267
G3 X22.2871 Y5.3088 I-1.3545 J14.1951
G3 X22.3937 Y5.411 I-0.0165 J0.1239
G1 X22.4498 Y5.7293
G3 X22.4517 Y5.751 I-0.1231 J0.0217
G3 X22.4292 Y5.8225 I-0.125 J0
G3 X22.5098 Y5.7713 I0.1023 J0.0719
G1 X22.8281 Y5.7152
G3 X22.9729 Y5.8166 I0.0217 J0.1231
G1 X23.1465 Y6.8014
G3 X23.1484 Y6.8231 I-0.1231 J0.0217
G3 X23.0451 Y6.9462 I-0.125 J0
G1 X22.7268 Y7.0023
G3 X22.6334 Y6.9816 I-0.0217 J-0.1231
G3 X22.6848 Y7.0623 I-0.0717 J0.1024
G1 X22.741 Y7.3806
G3 X22.7429 Y7.4023 I-0.1231 J0.0217
G3 X22.5869 Y7.5235 I-0.125 J0
G2 X22.0908 Y7.4133 I-1.9936 J7.8071
G2 X21.3982 Y7.2987 I-2.8363 J14.9959
G2 X20.6998 Y7.2121 I-2.8334 J19.9715
G2 X20.148 Y7.158 I-3.4926 J32.8121
G2 X19.8025 Y7.1289 I-2.9408 J32.8661
G2 X19.6497 Y7.1172 I-3.235 J41.005
G2 X18.9025 Y7.0678 I-3.0823 J41.0168
G2 X17.8025 Y7.0152 I-3.4771 J61.1501
G2 X16.7013 Y6.9807 I-2.8504 J73.3902
G2 X15.3995 Y6.958 I-2.4418 J102.4944
G2 X12.7951 Y6.9555 I-1.4251 J128.1595
G1 Z-0.6 F30
G2 X9.3868 Y7.0133 I2.0194 J219.4622 F15
G2 X7.6828 Y7.061 I6.5184 J263.4929
G2 X5.7776 Y7.1259 I10.2811 J329.407
G2 X4.8251 Y7.1625 I13.2071 J356.9274
G2 X4.189 Y7.1882 I15.6972 J395.6478
G2 X3.8223 Y7.2035 I16.3333 J395.622
G1 X3.6895 Y7.2092
G1 X3.5709 Y7.2142
G1 X3.3178 Y7.2251
G1 X3.0632 Y7.2363
G1 X2.807 Y7.2476
G1 X2.5493 Y7.2592
G1 X2.2899 Y7.271
G1 X2.0291 Y7.283
G1 X1.7745 Y7.2949
G1 X0.6871 Y7.4866
G3 X0.5408 Y7.4835 I-0.0651 J-0.3693
G3 X0.4068 Y7.4245 I0.0812 J-0.3661
G3 X0.3057 Y7.3188 I0.2151 J-0.3072
G3 X0.2526 Y7.1825 I0.3163 J-0.2015
G1 X0.079 Y6.1977
G3 X0.0733 Y6.1325 I0.3693 J-0.0651
G3 X0.0822 Y6.0514 I0.375 J0
G3 X0.1411 Y5.9174 I0.3661 J0.0812
G3 X0.2468 Y5.8163 I0.3072 J0.2151
G3 X0.3832 Y5.7632 I0.2015 J0.3163
G1 X0.7399 Y5.7003
G3 X0.8847 Y5.8017 I0.0217 J0.1231
G1 X1.0167 Y6.5499
G3 X1.0186 Y6.5716 I-0.1231 J0.0217
G3 X0.9961 Y6.643 I-0.125 J0
G3 X1.0766 Y6.5919 I0.1022 J0.072
G1 X1.4671 Y6.523
G3 X1.5603 Y6.5437 I0.0217 J0.1231
G3 X1.5091 Y6.4631 I0.0718 J-0.1023
G1 X1.3771 Y5.7149
G3 X1.3752 Y5.6932 I0.1231 J-0.0217
G3 X1.4941 Y5.5683 I0.125 J0
G1 X1.7521 Y5.5556
G1 X2.0086 Y5.543
G1 X2.2637 Y5.5306
G1 X2.5172 Y5.5183
G1 X2.7692 Y5.5062
G1 X3.0197 Y5.4943
G1 X3.2687 Y5.4825
G1 X3.5162 Y5.4709
G1 X3.7622 Y5.4595
G1 X4.0067 Y5.4483
G1 X4.2497 Y5.4372
G1 X4.4911 Y5.4263
G1 X4.7311 Y5.4156
G1 X4.9696 Y5.405
G1 X5.2065 Y5.3946
G1 X5.4419 Y5.3843
G1 X5.6759 Y5.3743
G1 X5.9083 Y5.3644
G1 X6.1392 Y5.3547
G1 X6.3686 Y5.3451
G1 X6.5965 Y5.3357
G1 X6.8229 Y5.3265
G1 X7.0478 Y5.3174
G1 X7.2712 Y5.3086
G1 X7.4931 Y5.2999
G1 X7.7135 Y5.2913
G1 X7.9323 Y5.2829
G1 X8.1497 Y5.2747
G1 X8.3656 Y5.2667
G1 X8.5799 Y5.2588
G3 X8.7935 Y5.2511 I14.4872 J397.5945
G3 X9.004 Y5.2436 I13.8724 J386.426
G3 X12.3739 Y5.1412 I12.0063 J339.6082
G3 X14.098 Y5.1047 I5.1273 J201.6764
G3 X14.598 Y5.0969 I3.4031 J201.7129
G3 X14.9714 Y5.0919 I2.9032 J201.7207
G3 X17.5696 Y5.0819 I1.8746 J149.4831
G3 X19.3973 Y5.1133 I-0.3579 J73.9279
G3 X20.3112 Y5.148 I-1.616 J54.6383
G3 X21.0335 Y5.1892 I-1.5807 J34.1159
G3 X21.7552 Y5.248 I-1.7657 J26.1267
G3 X22.2871 Y5.3088 I-1.3545 J14.1951
G3 X22.3937 Y5.411 I-0.0165 J0.1239
G1 X22.4498 Y5.7293
G3 X22.4517 Y5.751 I-0.1231 J0.0217
G3 X22.4292 Y5.8225 I-0.125 J0
G3 X22.5098 Y5.7713 I0.1023 J0.0719
G1 X22.8281 Y5.7152
G3 X22.9729 Y5.8166 I0.0217 J0.1231
G1 X23.1465 Y6.8014
G3 X23.1484 Y6.8231 I-0.1231 J0.0217
G3 X23.0451 Y6.9462 I-0.125 J0
G1 X22.7268 Y7.0023
G3 X22.6334 Y6.9816 I-0.0217 J-0.1231
G3 X22.6848 Y7.0623 I-0.0717 J0.1024
G1 X22.741 Y7.3806
G3 X22.7429 Y7.4023 I-0.1231 J0.0217
G3 X22.5869 Y7.5235 I-0.125 J0
G2 X22.0908 Y7.4133 I-1.9936 J7.8071
G2 X21.3982 Y7.2987 I-2.8363 J14.9959
G2 X20.6998 Y7.2121 I-2.8334 J19.9715
G2 X20.148 Y7.158 I-3.4926 J32.8121
G2 X19.8025 Y7.1289 I-2.9408 J32.8661
G2 X19.6497 Y7.1172 I-3.235 J41.005
G2 X18.9025 Y7.0678 I-3.0823 J41.0168
G2 X17.8025 Y7.0152 I-3.4771 J61.1501
G2 X16.7013 Y6.9807 I-2.8504 J73.3902
G2 X15.3995 Y6.958 I-2.4418 J102.4944
G2 X12.7951 Y6.9555 I-1.4251 J128.1595
G1 Z-0.75 F30
G2 X9.3868 Y7.0133 I2.0194 J219.4622 F15
G2 X7.6828 Y7.061 I6.5184 J263.4929
G2 X5.7776 Y7.1259 I10.2811 J329.407
G2 X4.8251 Y7.1625 I13.2071 J356.9274
G2 X4.189 Y7.1882 I15.6972 J395.6478
G1 Z-0.65 F30
G2 X3.8223 Y7.2035 I16.3333 J395.622 F15
G1 X3.6895 Y7.2092
G1 Z-0.75 F30
G1 X3.5709 Y7.2142 F15
G1 X3.3178 Y7.2251
G1 X3.0632 Y7.2363
G1 X2.807 Y7.2476
G1 X2.5493 Y7.2592
G1 X2.2899 Y7.271
G1 X2.0291 Y7.283
G1 X1.7745 Y7.2949
G1 X0.6871 Y7.4866
G3 X0.5408 Y7.4835 I-0.0651 J-0.3693
G3 X0.4068 Y7.4245 I0.0812 J-0.3661
G3 X0.3057 Y7.3188 I0.2151 J-0.3072
G3 X0.2526 Y7.1825 I0.3163 J-0.2015
G1 X0.079 Y6.1977
G3 X0.0733 Y6.1325 I0.3693 J-0.0651
G3 X0.0822 Y6.0514 I0.375 J0
G3 X0.1411 Y5.9174 I0.3661 J0.0812
G3 X0.2468 Y5.8163 I0.3072 J0.2151
G3 X0.3832 Y5.7632 I0.2015 J0.3163
G1 X0.7399 Y5.7003
G3 X0.8847 Y5.8017 I0.0217 J0.1231
G1 X1.0167 Y6.5499
G3 X1.0186 Y6.5716 I-0.1231 J0.0217
G3 X0.9961 Y6.643 I-0.125 J0
G3 X1.0766 Y6.5919 I0.1022 J0.072
G1 X1.4671 Y6.523
G3 X1.5603 Y6.5437 I0.0217 J0.1231
G3 X1.5091 Y6.4631 I0.0718 J-0.1023
G1 X1.3771 Y5.7149
G3 X1.3752 Y5.6932 I0.1231 J-0.0217
G3 X1.4941 Y5.5683 I0.125 J0
G1 X1.7521 Y5.5556
G1 X2.0086 Y5.543
G1 X2.2637 Y5.5306
G1 X2.5172 Y5.5183
G1 X2.7692 Y5.5062
G1 X3.0197 Y5.4943
G1 X3.2687 Y5.4825
G1 X3.5162 Y5.4709
G1 X3.7622 Y5.4595
G1 X4.0067 Y5.4483
G1 X4.2497 Y5.4372
G1 X4.4911 Y5.4263
G1 X4.7311 Y5.4156
G1 X4.9696 Y5.405
G1 X5.2065 Y5.3946
G1 X5.4419 Y5.3843
G1 X5.6759 Y5.3743
G1 X5.9083 Y5.3644
G1 X6.1392 Y5.3547
G1 X6.3686 Y5.3451
G1 X6.5965 Y5.3357
G1 X6.8229 Y5.3265
G1 X7.0478 Y5.3174
G1 X7.2712 Y5.3086
G1 X7.4931 Y5.2999
G1 X7.7135 Y5.2913
G1 X7.9323 Y5.2829
G1 X8.1497 Y5.2747
G1 X8.3656 Y5.2667
G1 X8.5799 Y5.2588
G3 X8.7935 Y5.2511 I14.4872 J397.5945
G3 X9.004 Y5.2436 I13.8724 J386.426
G3 X12.3739 Y5.1412 I12.0063 J339.6082
G3 X14.098 Y5.1047 I5.1273 J201.6764
G1 Z-0.65 F30
G3 X14.598 Y5.0969 I3.4031 J201.7129 F15
G1 Z-0.75 F30
G3 X14.9714 Y5.0919 I2.9032 J201.7207 F15
G3 X17.5696 Y5.0819 I1.8746 J149.4831
G3 X19.3973 Y5.1133 I-0.3579 J73.9279
G3 X20.3112 Y5.148 I-1.616 J54.6383
G3 X21.0335 Y5.1892 I-1.5807 J34.1159
G3 X21.7552 Y5.248 I-1.7657 J26.1267
G3 X22.2871 Y5.3088 I-1.3545 J14.1951
G3 X22.3937 Y5.411 I-0.0165 J0.1239
G1 X22.4498 Y5.7293
G3 X22.4517 Y5.751 I-0.1231 J0.0217
G3 X22.4292 Y5.8225 I-0.125 J0
G3 X22.5098 Y5.7713 I0.1023 J0.0719
G1 X22.8281 Y5.7152
G3 X22.9729 Y5.8166 I0.0217 J0.1231
G1 X23.1465 Y6.8014
G3 X23.1484 Y6.8231 I-0.1231 J0.0217
G3 X23.0451 Y6.9462 I-0.125 J0
G1 X22.7268 Y7.0023
G3 X22.6334 Y6.9816 I-0.0217 J-0.1231
G3 X22.6848 Y7.0623 I-0.0717 J0.1024
G1 X22.741 Y7.3806
G3 X22.7429 Y7.4023 I-0.1231 J0.0217
G3 X22.5869 Y7.5235 I-0.125 J0
G2 X22.0908 Y7.4133 I-1.9936 J7.8071
G2 X21.3982 Y7.2987 I-2.8363 J14.9959
G2 X20.6998 Y7.2121 I-2.8334 J19.9715
G2 X20.148 Y7.158 I-3.4926 J32.8121
G1 Z-0.65 F30
G2 X19.8025 Y7.1289 I-2.9408 J32.8661 F15
G2 X19.6497 Y7.1172 I-3.235 J41.005
G1 Z-0.75 F30
G2 X18.9025 Y7.0678 I-3.0823 J41.0168 F15
G2 X17.8025 Y7.0152 I-3.4771 J61.1501
G2 X16.7013 Y6.9807 I-2.8504 J73.3902
G2 X15.3995 Y6.958 I-2.4418 J102.4944
G2 X12.7951 Y6.9555 I-1.4251 J128.1595
G0 Z0.125
M5
M30
